; Translated for use with the MPSCARA Machine MPSCARA_V1
; File Quality: 2 mm
; generated by Slic3r 1.2.9 on 2017-08-28 at 17:46:06

; external perimeters extrusion width = 1.50mm
; perimeters extrusion width = 1.58mm
; infill extrusion width = 1.58mm
; solid infill extrusion width = 1.58mm
; top infill extrusion width = 1.58mm

M107
G28 ; home all axes
G1 Z10.000000 F500.000000

G21 ; set units to millimeters
G90 ; use absolute coordinates
M82 ; use absolute distances for extrusion
G92 E0
G1 Z1.500000 F1200.000000
G1 E-0.100000 F0.000000
G92 E0
G1 Z3.500000 F1200.000000
G1 X108.560300 Y32.005800 F1200.000000
G1 Z1.500000 F1200.000000
G1 E0.100000 F0.000000
G1 X108.354000 Y31.645300 E0.683680 F306.619310
G1 X107.818400 Y31.912800 E1.365810 F242.141460
G1 X107.638300 Y32.155000 E1.703980 F226.525270
G1 X107.469800 Y32.507100 E2.153830 F238.412870
G1 X107.268400 Y33.143700 E2.946680 F250.230630
G1 X107.009800 Y34.042300 E4.058690 F251.485750
G1 X106.876200 Y34.550900 E4.685940 F251.567960
G1 X106.742400 Y35.106000 E5.369470 F252.579530
G1 X106.536500 Y36.083700 E6.572410 F254.689700
G1 X106.459500 Y36.598500 E7.210140 F258.187150
G1 X106.366400 Y37.292000 E8.071410 F258.923600
G1 X106.214700 Y38.476600 E9.540707 F255.276980
G1 X106.035400 Y39.671900 E11.010004 F251.664010
G1 X106.034200 Y39.679300 E11.019100 F251.664010
G1 X105.882800 Y40.464500 E11.971160 F249.350740
G1 X105.574500 Y41.664400 E13.397510 F242.376340
G1 X105.431900 Y42.106000 E13.912630 F233.155210
G1 X105.313500 Y42.582700 E14.476870 F240.283560
G1 X105.750200 Y43.042000 E15.453720 F285.950650
G1 X106.333300 Y42.487400 E16.215220 F185.950210
G1 X106.566300 Y42.219700 E16.557980 F190.437160
G1 X107.049600 Y41.590200 E17.340190 F195.224190
G1 X107.637400 Y40.702000 E18.425020 F203.621810
G1 X108.215800 Y39.735800 E19.607430 F211.151130
G1 X108.759000 Y38.699700 E20.875980 F219.883140
G1 X109.227100 Y37.697100 E22.109570 F227.575520
G1 X109.591700 Y36.769900 E23.252670 F236.506670
G1 X109.863100 Y35.953000 E24.263320 F244.111750
G1 X109.970300 Y35.520200 E24.801590 F253.668930
G1 X110.004300 Y35.124600 E25.302110 F268.651990
G1 X109.779900 Y34.622200 E26.073830 F300.064640
G1 X109.640800 Y34.424200 E26.419110 F306.085520
G1 X109.492200 Y34.181300 E26.823290 F304.782640
G1 X109.171500 Y33.590000 E27.772530 F303.431540
G1 X109.030300 Y33.289700 E28.237790 F302.153390
G1 X108.900200 Y32.980700 E28.704720 F300.912210
G1 X108.725700 Y32.468700 E29.449740 F298.162690
G1 X108.618200 Y32.108400 E29.964060 F296.968440
G1 E29.864060 F0.000000
G92 E0
G1 Z3.500000 F1200.000000
G1 X108.852000 Y30.941400 E0.000000 F500.000000
G1 X109.060900 Y29.780400 E0.000000 F500.000000
G1 X109.245200 Y28.624400 E0.000000 F500.000000
G1 X109.405400 Y27.472800 E0.000000 F500.000000
G1 X109.524100 Y26.484900 F500.000000
G1 Z1.500000 F1200.000000
G1 E0.100000 F0.000000
G1 X109.792300 Y25.829100 E0.975180 F258.808010
G1 X110.319700 Y25.820100 E1.639540 F295.390250
G1 X110.651200 Y25.861400 E2.066330 F307.379290
G1 X111.484100 Y26.085000 E3.179630 F316.655000
G1 X111.788600 Y26.150800 E3.579810 F315.293840
G1 X111.404300 Y25.900000 E4.183380 F331.513550
G1 X110.994500 Y25.609600 E4.845560 F331.825810
G1 X110.659300 Y25.353200 E5.403420 F331.959750
G1 X110.029100 Y24.787400 E6.526760 F332.175290
G1 X109.699000 Y24.462600 E7.141520 F331.898640
G1 X109.410900 Y24.158700 E7.698010 F331.635820
G1 X108.875800 Y23.511300 E8.814870 F330.722760
G1 X108.617300 Y23.165600 E9.387840 F330.074640
G1 X108.406700 Y22.858300 E9.882020 F329.256890
G1 X108.125500 Y22.364800 E10.634900 F326.728070
G1 X108.026200 Y22.133600 E10.966540 F322.447020
G1 X107.898100 Y21.348700 E12.002780 F307.510430
G1 X108.804000 Y21.537600 E13.184310 F317.068700
G1 X109.053600 Y21.685200 E13.559980 F334.706640
G1 X109.821100 Y22.216400 E14.770530 F336.532200
G1 X110.101700 Y22.385900 E15.194600 F335.873980
G1 X110.378700 Y22.534200 E15.599270 F334.611220
G1 X110.500300 Y21.789200 E16.568430 F286.209360
G1 X110.617500 Y21.372200 E17.124110 F279.720040
G1 X110.759500 Y20.957200 E17.687060 F277.017380
G1 X111.141500 Y20.104200 E18.892520 F272.509700
G1 X111.400800 Y19.785400 E19.424480 F266.399740
G1 X111.740300 Y19.481700 E20.014860 F268.004840
G1 X112.337000 Y19.083400 E20.946800 F273.415540
G1 X112.681300 Y18.909700 E21.447530 F281.665570
G1 X113.004900 Y18.784400 E21.897350 F288.868100
G1 X113.751300 Y18.628600 E22.876020 F301.659300
G1 X114.201300 Y18.571000 E23.455670 F310.354300
G1 X114.780200 Y18.535700 E24.192250 F317.059270
G1 X114.041300 Y17.988200 E25.300650 F365.043780
G1 X113.079900 Y17.241200 E26.769589 F363.812910
G1 X112.986300 Y17.169600 E26.911990 F363.812910
G1 X112.046200 Y16.399800 E28.381563 F363.505110
G1 X111.919700 Y16.297800 E28.578230 F363.505110
G1 X111.397900 Y15.857800 E29.405150 F363.655160
G1 X110.968900 Y15.482900 E30.095470 F363.462930
G1 X110.110700 Y14.669300 E31.530540 F363.268420
G1 X109.257500 Y13.811400 E32.999931 F363.039980
G1 X109.234700 Y13.788700 E33.038950 F363.039980
G1 X108.429000 Y12.888000 E34.508117 F362.745380
G1 X108.397900 Y12.853700 E34.564400 F362.745380
G1 X107.975200 Y12.347000 E35.367180 F361.832700
G1 X107.615400 Y11.889500 E36.075550 F361.347030
G1 X106.976700 Y10.948100 E37.463190 F359.056500
G1 X106.676500 Y10.449800 E38.174050 F357.732150
G1 X106.444900 Y10.018100 E38.774070 F355.736350
G1 X106.145900 Y9.382800 E39.636360 F353.089010
G1 X106.047100 Y9.149800 E39.948140 F351.731210
G1 X105.774000 Y8.106800 E41.294310 F340.640530
G1 X106.830700 Y8.747100 E42.763546 F368.966310
G1 X106.950700 Y8.821200 E42.930870 F368.966310
G1 X107.099900 Y8.924900 E43.146330 F370.940680
G1 X106.801400 Y8.489900 E43.776230 F367.848060
G1 X106.440500 Y7.923800 E44.578760 F366.693350
G1 X106.141000 Y7.423900 E45.276150 F365.965070
G1 X105.626100 Y6.431400 E46.619610 F362.749400
G1 X105.388300 Y5.921100 E47.297210 F361.674860
G1 X105.209600 Y5.492100 E47.859360 F359.544800
G1 X105.084700 Y5.161100 E48.288680 F357.737110
G1 X104.971100 Y5.214500 E48.458490 F300.336800
G1 X104.336300 Y5.587900 E49.457680 F295.679520
G1 X103.960400 Y5.846000 E50.076160 F290.409570
G1 X103.602500 Y6.113600 E50.680450 F287.532510
G1 X102.850000 Y6.749600 E52.007100 F284.550660
G1 X102.208300 Y7.356400 E53.186370 F280.014210
G1 X101.606700 Y8.053000 E54.404640 F276.536230
G1 X101.272200 Y8.477500 E55.114720 F273.524550
G1 X100.969900 Y8.886200 E55.778420 F272.043500
G1 X100.385900 Y9.749800 E57.129130 F271.264680
G1 X100.126300 Y10.161000 E57.754500 F268.394910
G1 X99.937100 Y10.481800 E58.231780 F267.801350
G1 X99.571800 Y11.211900 E59.272320 F269.880220
G1 X99.375700 Y11.637800 E59.867940 F268.896720
G1 X99.205900 Y12.028600 E60.406860 F268.691770
G1 X98.855700 Y13.013200 E61.726580 F272.220460
G1 X98.680500 Y13.583500 E62.478800 F272.247750
G1 X98.533400 Y14.115400 E63.172910 F272.833850
G1 X98.282000 Y15.219700 E64.599290 F275.482590
G1 X98.180300 Y15.741800 E65.269140 F275.012570
G1 X98.005500 Y16.810800 E66.634670 F276.734020
G1 X97.938200 Y17.073200 E66.970810 F266.356310
G1 X97.707300 Y17.560900 E67.619610 F250.609340
G1 X97.140600 Y17.478000 E68.360620 F300.603350
G1 X96.847300 Y17.306700 E68.824970 F315.900910
G1 X96.638900 Y17.089800 E69.242100 F317.596300
G1 X96.653200 Y17.398400 E69.644540 F287.786010
G1 X96.740700 Y18.336400 E70.881380 F291.088470
G1 X96.868400 Y19.228000 E72.075590 F292.894650
G1 X96.999100 Y19.933100 E73.035650 F294.040470
G1 X97.199600 Y20.649000 E74.047950 F298.087150
G1 X97.473500 Y21.526300 E75.308160 F298.695260
G1 X97.834900 Y22.481400 E76.724150 F300.296480
G1 X98.040900 Y22.961400 E77.454740 F300.745390
G1 X98.232400 Y23.364100 E78.082010 F301.592920
G1 X98.659500 Y24.147600 E79.347450 F303.031930
G1 X99.075400 Y24.843800 E80.503930 F303.373290
G1 X99.423200 Y25.480300 E81.536010 F301.807420
G1 X99.333700 Y26.011700 E82.198550 F261.516730
G1 X98.801300 Y26.284300 E82.859360 F233.717720
G1 X98.372100 Y26.280400 E83.402060 F278.059370
G1 X99.021300 Y27.049700 E84.871315 F301.119280
G1 X99.112600 Y27.160000 E85.080370 F301.119280
G1 X99.557300 Y27.655000 E86.052890 F301.505910
G1 X99.968800 Y28.091400 E86.929840 F301.563570
G1 X100.693300 Y28.789300 E88.398980 F301.713780
G1 X100.923100 Y29.015600 E88.870160 F301.713780
G1 X101.440700 Y29.495400 E89.900170 F301.771350
G1 X101.899800 Y29.905300 E90.797390 F301.833580
G1 X102.683600 Y30.543700 E92.266850 F302.125610
G1 X102.849400 Y30.681500 E92.580310 F302.125610
G1 X103.318900 Y31.042700 E93.438640 F301.946820
G1 X103.707700 Y31.322800 E94.131200 F301.894440
G1 X104.556300 Y31.892000 E95.600545 F302.413680
G1 X104.804700 Y32.062600 E96.033880 F302.413680
G1 X105.030700 Y32.525900 E96.768920 F297.650440
G1 X105.078000 Y32.945500 E97.331760 F281.146470
G1 X105.085500 Y33.438800 E97.971460 F273.973920
G1 X105.113200 Y34.568200 E99.440718 F271.337940
G1 X105.114500 Y34.663800 E99.564590 F271.337940
G1 X105.147000 Y35.419200 E100.554400 F273.832270
G1 X105.184700 Y36.156600 E101.524290 F273.398580
G1 X105.248200 Y37.270800 E102.993457 F270.307450
G1 X105.287700 Y38.393800 E104.462624 F267.444940
G1 X105.300700 Y39.192800 E105.500340 F267.444940
G1 X105.279400 Y40.339700 E106.970377 F261.238370
G1 X105.275900 Y40.453300 E107.115220 F261.238370
G1 X105.229200 Y41.095900 E107.920610 F258.213540
G1 X105.167500 Y41.641300 E108.594200 F253.991050
G1 X104.948400 Y42.771900 E109.949860 F246.503180
G1 X104.791700 Y43.393700 E110.679990 F238.888670
G1 X104.496900 Y44.401700 E111.845280 F234.245820
G1 X105.142300 Y43.893700 E112.600420 F183.397310
G1 X105.792000 Y43.329700 E113.399550 F183.293930
G1 X106.576400 Y42.493800 E114.487120 F185.338040
G1 X107.058100 Y41.875000 E115.256330 F194.075190
G1 X107.918600 Y40.696700 E116.725653 F204.698190
G1 X108.624600 Y39.714200 E117.973760 F204.698190
G1 X108.942200 Y39.303100 E118.514180 F206.991790
G1 X109.694900 Y38.530300 E119.637320 F205.654220
G1 X109.878000 Y39.405500 E120.862620 F284.900150
G1 X109.871400 Y39.908300 E121.508420 F269.563550
G1 X109.752900 Y40.692000 E122.477910 F257.620480
G1 X109.646100 Y41.184200 E123.077720 F250.165160
G1 X109.519500 Y41.676200 E123.672020 F245.500930
G1 X109.129500 Y42.798200 E125.007980 F236.374920
G1 X108.872300 Y43.412600 E125.731500 F226.707260
G1 X108.582700 Y44.028000 E126.451940 F220.221600
G1 X109.154300 Y43.527000 E127.189980 F192.411340
G1 X109.855800 Y42.809200 E128.182110 F194.158090
G1 X110.288900 Y42.334900 E128.828070 F198.667610
G1 X110.701900 Y41.864100 E129.466600 F201.733060
G1 X111.547000 Y40.801400 E130.883620 F205.990160
G1 X111.929300 Y40.274300 E131.579240 F213.482620
G1 X112.222900 Y39.835200 E132.152600 F218.210920
G1 X112.898000 Y38.698700 E133.622320 F228.694990
G1 X112.908100 Y38.681500 E133.644720 F228.694990
G1 X113.129700 Y38.253900 E134.192790 F232.657560
G1 X112.830700 Y38.020500 E134.733730 F307.424340
G1 X112.459000 Y37.697000 E135.438810 F307.510960
G1 X112.310700 Y37.523100 E135.766840 F306.719430
G1 X112.067400 Y36.772700 E136.855940 F295.341040
G1 X113.089400 Y36.724300 E138.132130 F276.972790
G1 X113.382700 Y36.765400 E138.517590 F292.766830
G1 X114.473900 Y36.990200 E139.987236 F299.275490
G1 X114.635100 Y37.025300 E140.205000 F299.275490
G1 X115.727800 Y37.255200 E141.674028 F301.376500
G1 X115.872900 Y37.287400 E141.869610 F301.376500
G1 X116.973700 Y37.506400 E143.339312 F302.681190
G1 X117.283700 Y37.572100 E143.754300 F302.681190
G1 X118.392500 Y37.780700 E145.223660 F304.330860
G1 X118.646900 Y37.831800 E145.561610 F304.330860
G1 X119.763700 Y38.028700 E147.030848 F305.893030
G1 X119.763700 Y38.028700 E147.030910 F305.893030
G1 X120.566100 Y38.169400 E148.083670 F304.785740
G1 X121.566100 Y38.294300 E149.376050 F302.710180
G1 X122.460800 Y38.383300 E150.523540 F302.748230
G1 X122.811800 Y38.075400 E151.088710 F247.291380
G1 X123.392700 Y37.634100 E151.978640 F250.971890
G1 X123.740900 Y37.405700 E152.491170 F256.537450
G1 X124.086200 Y37.201700 E152.986460 F260.395430
G1 X124.981200 Y36.841200 E154.189260 F271.151180
G1 X125.547200 Y36.675900 E154.929380 F281.718950
G1 X126.110100 Y36.548200 E155.655960 F288.269880
G1 X127.263000 Y36.392300 E157.125681 F301.232760
G1 X127.322700 Y36.384900 E157.201890 F301.232760
G1 X127.953000 Y36.342500 E158.000300 F305.783560
G1 X128.554400 Y36.336500 E158.759660 F312.128170
G1 X128.250700 Y36.265200 E159.150710 F333.097550
G1 X127.449200 Y36.132100 E160.171510 F327.990450
G1 X126.658200 Y36.051300 E161.173260 F321.555410
G1 X125.778600 Y36.073400 E162.284100 F309.670500
G1 X125.262600 Y36.124900 E162.937950 F301.177060
G1 X124.784100 Y36.196300 E163.546930 F295.807220
G1 X123.769300 Y36.450200 E164.857240 F286.859680
G1 X123.286900 Y36.613400 E165.491020 F277.166510
G1 X122.894100 Y36.775700 E166.016690 F270.644460
G1 X121.920100 Y37.242200 E167.340800 F265.659690
G1 X120.797300 Y37.031400 E168.810350 F309.567320
G1 X120.694700 Y37.013200 E168.944430 F309.567320
G1 X119.674900 Y36.817000 E170.285010 F310.841270
G1 X118.734300 Y36.614400 E171.533110 F310.394140
G1 X117.872500 Y36.356200 E172.715150 F313.086960
G1 X117.416200 Y36.191900 E173.357680 F314.142770
G1 X117.014100 Y36.027900 E173.936940 F315.192570
G1 X116.281900 Y35.650800 E175.047990 F317.679620
G1 X116.020200 Y35.440800 E175.508080 F320.203370
G1 X115.804200 Y35.183400 E175.970720 F319.296380
G1 X115.573800 Y34.607000 E176.811760 F309.661370
G1 X115.504200 Y34.207900 E177.347760 F298.749620
G1 X115.466300 Y33.769800 E177.922360 F293.361110
G1 X115.470700 Y32.823400 E179.142950 F286.811400
G1 X115.497600 Y32.293900 E179.823320 F285.156140
G1 X115.538500 Y31.808500 E180.446240 F283.496070
G1 X115.673200 Y30.888700 E181.628510 F279.151990
G1 X115.758300 Y30.452900 E182.191630 F277.700760
G1 X115.843100 Y30.113000 E182.635200 F274.693070
G1 X115.929300 Y29.825600 E183.014130 F272.002930
G1 X114.909400 Y29.343900 E184.483322 F327.030130
G1 X114.454800 Y29.135800 E185.135710 F327.030130
G1 X113.442700 Y28.651800 E186.605311 F325.291200
G1 X112.814500 Y28.361700 E187.513240 F325.291200
G1 X112.065500 Y27.983300 E188.619260 F325.698310
G1 X111.425500 Y27.636900 E189.582750 F325.604630
G1 X110.469600 Y27.082700 E191.052327 F324.322580
G1 X110.154200 Y26.904300 E191.534900 F324.322580
G1 X109.627300 Y26.552500 E192.383630 F325.599230
G1 E192.283630 F0.000000
G92 E0
G1 Z3.500000 F1200.000000
G1 X109.285100 Y25.502000 E0.000000 F500.000000
G1 X108.922900 Y24.455700 E0.000000 F500.000000
G1 X108.541000 Y23.413600 E0.000000 F500.000000
G1 X108.441000 Y23.149900 F500.000000
G1 Z1.500000 F1200.000000
G1 E0.100000 F0.000000
G1 X107.353200 Y23.671000 E1.683617 F258.929090
G1 X106.258000 Y24.213100 E3.267234 F254.095650
G1 X105.154400 Y24.776700 E4.850851 F249.201860
G1 X104.041100 Y25.362600 E6.434468 F244.240840
G1 X102.917000 Y25.971400 E8.018085 F239.205370
G1 X101.780600 Y26.604300 E9.601702 F234.087820
G1 X100.630600 Y27.262100 E11.185318 F228.880050
G1 X99.846600 Y27.720300 E12.253040 F228.880050
G1 X100.324000 Y28.197000 E13.313620 F302.128300
G1 X101.487300 Y27.529800 E14.897289 F231.129110
G1 X102.636000 Y26.888400 E16.480958 F236.294140
G1 X103.771600 Y26.271900 E18.064627 F241.373240
G1 X104.895500 Y25.679000 E19.648297 F246.374320
G1 X106.009200 Y25.109000 E21.231966 F251.304850
G1 X107.113700 Y24.561100 E22.815636 F256.171890
G1 X108.210300 Y24.034700 E24.399305 F260.982260
G1 X108.870600 Y23.726300 E25.357880 F260.982260
G1 X109.333800 Y24.289200 E26.403140 F330.584820
G1 X108.237200 Y24.794600 E27.986755 F259.409650
G1 X107.133500 Y25.321400 E29.570370 F254.581480
G1 X106.021400 Y25.870000 E31.153985 F249.695210
G1 X104.899900 Y26.441200 E32.737600 F244.743940
G1 X103.767700 Y27.035700 E34.321215 F239.720470
