; generated by Slic3r 1.2.9 on 2017-08-28 at 17:46:06

; external perimeters extrusion width = 1.50mm
; perimeters extrusion width = 1.58mm
; infill extrusion width = 1.58mm
; solid infill extrusion width = 1.58mm
; top infill extrusion width = 1.58mm

M107
G28 ; home all axes
G1 Z10  F500 ; lift nozzle

G21 ; set units to millimeters
G90 ; use absolute coordinates
M82 ; use absolute distances for extrusion
G92 E0
G1 Z1.500 F1200.000
G1 E-0.10000 F0.00000
G92 E0
G1 Z3.500 F1200.000
G1 X54.035 Y56.642 F1200.000
G1 Z1.500 F1200.000
G1 E0.10000 F0.00000
G1 X54.705 Y56.216 E0.68368 F600.000
G1 X55.332 Y56.901 E1.36581
G1 X55.401 Y57.356 E1.70398
G1 X55.346 Y57.966 E2.15383
G1 X55.070 Y59.009 E2.94668
G1 X54.621 Y60.455 E4.05869
G1 X54.337 Y61.260 E4.68594
G1 X54.000 Y62.127 E5.36947
G1 X53.339 Y63.625 E6.57241
G1 X52.930 Y64.391 E7.21014
G1 X52.351 Y65.410 E8.07141
G1 X50.289 Y68.852 E11.01910
G1 X49.651 Y69.979 E11.97116
G1 X48.776 Y71.712 E13.39751
G1 X48.494 Y72.355 E13.91263
G1 X48.126 Y73.028 E14.47687
G1 X46.855 Y73.419 E15.45372
G1 X46.554 Y72.427 E16.21522
G1 X46.487 Y71.966 E16.55798
G1 X46.431 Y70.903 E17.34019
G1 X46.494 Y69.427 E18.42502
G1 X46.645 Y67.825 E19.60743
G1 X46.911 Y66.119 E20.87598
G1 X47.240 Y64.473 E22.10957
G1 X47.635 Y62.968 E23.25267
G1 X48.047 Y61.655 E24.26332
G1 X48.318 Y60.975 E24.80159
G1 X48.665 Y60.388 E25.30211
G1 X49.532 Y59.795 E26.07383
G1 X49.954 Y59.589 E26.41911
G1 X50.435 Y59.322 E26.82329
G1 X51.534 Y58.642 E27.77253
G1 X52.054 Y58.281 E28.23779
G1 X52.562 Y57.899 E28.70472
G1 X53.332 Y57.239 E29.44974
G1 X53.845 Y56.763 E29.96406
G1 E29.86406 F0.00000
G92 E0
G1 Z3.500 F1200.000
G1 X57.207 Y47.642 F1200.000
G1 Z1.500 F1200.000
G1 E0.10000 F0.00000
G1 X57.281 Y46.453 E0.97518 F600.000
G1 X56.437 Y46.128 E1.63954
G1 X55.872 Y45.994 E2.06633
G1 X54.365 Y45.833 E3.17963
G1 X53.828 Y45.744 E3.57981
G1 X54.635 Y45.591 E4.18338
G1 X55.513 Y45.386 E4.84556
G1 X56.245 Y45.184 E5.40342
G1 X57.681 Y44.660 E6.52676
G1 X58.452 Y44.334 E7.14152
G1 X59.138 Y44.013 E7.69801
G1 X60.466 Y43.274 E8.81487
G1 X61.127 Y42.859 E9.38784
G1 X61.681 Y42.477 E9.88202
G1 X62.473 Y41.828 E10.63490
G1 X62.789 Y41.505 E10.96654
G1 X63.509 Y40.292 E12.00278
G1 X61.911 Y40.111 E13.18431
G1 X61.410 Y40.213 E13.55998
G1 X59.818 Y40.640 E14.77053
G1 X59.252 Y40.751 E15.19460
G1 X58.706 Y40.827 E15.59927
G1 X59.004 Y39.542 E16.56843
G1 X59.085 Y38.790 E17.12411
G1 X59.120 Y38.024 E17.68706
G1 X59.033 Y36.386 E18.89252
G1 X58.809 Y35.698 E19.42448
G1 X58.446 Y34.981 E20.01486
G1 X57.727 Y33.936 E20.94680
G1 X57.280 Y33.421 E21.44753
G1 X56.839 Y32.997 E21.89735
G1 X55.750 Y32.229 E22.87602
G1 X55.076 Y31.819 E23.45567
G1 X54.191 Y31.348 E24.19225
G1 X55.648 Y30.959 E25.30065
G1 X57.744 Y30.311 E26.91199
G1 X59.878 Y29.544 E28.57823
G1 X60.925 Y29.132 E29.40515
G1 X61.790 Y28.764 E30.09547
G1 X63.542 Y27.901 E31.53054
G1 X65.339 Y26.908 E33.03895
G1 X67.078 Y25.773 E34.56440
G1 X67.962 Y25.131 E35.36718
G1 X68.719 Y24.534 E36.07555
G1 X70.094 Y23.239 E37.46319
G1 X70.750 Y22.528 E38.17405
G1 X71.266 Y21.895 E38.77407
G1 X71.947 Y20.939 E39.63636
G1 X72.176 Y20.582 E39.94814
G1 X72.902 Y18.899 E41.29431
G1 X70.778 Y19.571 E42.93087
G1 X70.505 Y19.676 E43.14633
G1 X71.111 Y19.070 E43.77623
G1 X71.847 Y18.263 E44.57876
G1 X72.458 Y17.537 E45.27615
G1 X73.519 Y16.048 E46.61961
G1 X74.009 Y15.266 E47.29721
G1 X74.380 Y14.597 E47.85936
G1 X74.641 Y14.074 E48.28868
G1 X74.821 Y14.218 E48.45849
G1 X75.814 Y15.147 E49.45768
G1 X76.395 Y15.756 E50.07616
G1 X76.943 Y16.370 E50.68045
G1 X78.076 Y17.776 E52.00710
G1 X79.021 Y19.073 E53.18637
G1 X79.868 Y20.499 E54.40464
G1 X80.324 Y21.351 E55.11472
G1 X80.725 Y22.161 E55.77842
G1 X81.465 Y23.844 E57.12913
G1 X81.779 Y24.635 E57.75450
G1 X81.998 Y25.246 E58.23178
G1 X82.375 Y26.612 E59.27232
G1 X82.559 Y27.401 E59.86794
G1 X82.706 Y28.120 E60.40686
G1 X82.925 Y29.903 E61.72658
G1 X82.992 Y30.924 E62.47880
G1 X83.018 Y31.869 E63.17291
G1 X82.954 Y33.809 E64.59929
G1 X82.882 Y34.718 E65.26914
G1 X82.653 Y36.563 E66.63467
G1 X82.633 Y37.020 E66.97081
G1 X82.771 Y37.892 E67.61961
G1 X83.780 Y37.879 E68.36062
G1 X84.370 Y37.653 E68.82497
G1 X84.838 Y37.331 E69.24210
G1 X84.653 Y37.846 E69.64454
G1 X83.998 Y39.397 E70.88138
G1 X83.276 Y40.854 E72.07559
G1 X82.638 Y41.994 E73.03565
G1 X81.860 Y43.131 E74.04795
G1 X80.839 Y44.509 E75.30816
G1 X79.595 Y45.982 E76.72415
G1 X78.919 Y46.711 E77.45474
G1 X78.315 Y47.315 E78.08201
G1 X77.035 Y48.467 E79.34745
G1 X75.822 Y49.470 E80.50393
G1 X74.757 Y50.386 E81.53601
G1 X74.503 Y51.252 E82.19855
G1 X75.195 Y51.826 E82.85936
G1 X75.927 Y51.930 E83.40206
G1 X73.975 Y53.117 E85.08037
G1 X72.821 Y53.765 E86.05289
G1 X71.766 Y54.323 E86.92984
G1 X69.378 Y55.452 E88.87016
G1 X68.094 Y56.015 E89.90017
G1 X66.965 Y56.481 E90.79739
G1 X64.684 Y57.309 E92.58031
G1 X63.573 Y57.671 E93.43864
G1 X62.669 Y57.936 E94.13120
G1 X60.160 Y58.578 E96.03388
G1 X59.350 Y59.166 E96.76892
G1 X58.873 Y59.765 E97.33176
G1 X58.386 Y60.487 E97.97146
G1 X57.133 Y62.257 E99.56459
G1 X56.317 Y63.329 E100.55440
G1 X55.497 Y64.363 E101.52429
G1 X52.045 Y68.532 E105.50034
G1 X50.668 Y70.244 E107.11522
G1 X50.008 Y71.120 E107.92061
G1 X49.477 Y71.867 E108.59420
G1 X48.506 Y73.436 E109.94986
G1 X48.020 Y74.303 E110.67999
G1 X47.282 Y75.707 E111.84528
G1 X46.832 Y74.783 E112.60042
G1 X46.440 Y73.768 E113.39955
G1 X46.146 Y72.317 E114.48712
G1 X46.084 Y71.272 E115.25633
G1 X46.003 Y67.574 E117.97376
G1 X45.946 Y66.841 E118.51418
G1 X45.579 Y65.357 E119.63732
G1 X44.316 Y66.446 E120.86262
G1 X43.763 Y67.130 E121.50842
G1 X43.064 Y68.249 E122.47791
G1 X42.670 Y68.964 E123.07772
G1 X42.303 Y69.685 E123.67202
G1 X41.610 Y71.366 E125.00798
G1 X41.290 Y72.298 E125.73150
G1 X41.014 Y73.239 E126.45194
G1 X40.694 Y72.286 E127.18998
G1 X40.421 Y70.964 E128.18211
G1 X40.286 Y70.095 E128.82807
G1 X40.176 Y69.233 E129.46660
G1 X40.055 Y67.308 E130.88362
G1 X40.047 Y66.361 E131.57924
G1 X40.076 Y65.581 E132.15260
G1 X40.272 Y63.560 E133.64472
G1 X40.389 Y62.823 E134.19279
G1 X41.115 Y62.701 E134.73373
G1 X42.053 Y62.498 E135.43881
G1 X42.475 Y62.353 E135.76684
G1 X43.658 Y61.460 E136.85594
G1 X42.088 Y60.718 E138.13213
G1 X41.582 Y60.577 E138.51759
G1 X39.343 Y60.067 E140.20500
G1 X37.142 Y59.527 E141.86961
G1 X34.671 Y58.840 E143.75430
G1 X32.324 Y58.103 E145.56161
G1 X30.437 Y57.440 E147.03091
G1 X29.093 Y56.942 E148.08367
G1 X27.486 Y56.228 E149.37605
G1 X26.086 Y55.536 E150.52354
G1 X25.913 Y54.786 E151.08871
G1 X25.553 Y53.629 E151.97864
G1 X25.299 Y52.980 E152.49117
G1 X25.024 Y52.364 E152.98646
G1 X24.139 Y50.987 E154.18926
G1 X23.519 Y50.193 E154.92938
G1 X22.869 Y49.447 E155.65596
G1 X21.370 Y47.971 E157.20189
G1 X20.557 Y47.250 E158.00030
G1 X19.752 Y46.602 E158.75966
G1 X20.235 Y46.825 E159.15071
G1 X21.460 Y47.481 E160.17151
G1 X22.628 Y48.185 E161.17326
G1 X23.824 Y49.109 E162.28410
G1 X24.492 Y49.697 E162.93795
G1 X25.091 Y50.270 E163.54693
G1 X26.267 Y51.611 E164.85724
G1 X26.787 Y52.299 E165.49102
G1 X27.182 Y52.896 E166.01669
G1 X28.101 Y54.447 E167.34080
G1 X30.142 Y55.220 E168.94443
G1 X31.863 Y55.825 E170.28501
G1 X33.486 Y56.328 E171.53311
G1 X35.059 Y56.665 E172.71515
G1 X35.924 Y56.796 E173.35768
G1 X36.708 Y56.879 E173.93694
G1 X38.220 Y56.906 E175.04799
G1 X38.838 Y56.804 E175.50808
G1 X39.433 Y56.597 E175.97072
G1 X40.369 Y55.938 E176.81176
G1 X40.873 Y55.411 E177.34776
G1 X41.362 Y54.801 E177.92236
G1 X42.268 Y53.408 E179.14295
G1 X42.727 Y52.604 E179.82332
G1 X43.116 Y51.851 E180.44624
G1 X43.748 Y50.371 E181.62851
G1 X44.007 Y49.649 E182.19163
G1 X44.177 Y49.070 E182.63520
G1 X44.296 Y48.568 E183.01413
G1 X47.184 Y48.591 E185.13571
G1 X50.419 Y48.528 E187.51324
G1 X51.922 Y48.433 E188.61926
G1 X53.227 Y48.302 E189.58275
G1 X55.858 Y47.933 E191.53490
G1 X56.987 Y47.689 E192.38363
G1 E192.28363 F0.00000
G92 E0
G1 Z3.500 F1200.000
G1 X61.425 Y42.930 F1200.000
G1 Z1.500 F1200.000
G1 E0.10000 F0.00000
G1 X72.278 Y53.783 E12.25304 F600.000
G1 X71.078 Y54.379 E13.31362
G1 X60.323 Y43.623 E25.35788
G1 X59.169 Y44.266 E26.40314
G1 X69.859 Y54.956 E38.37364
G1 X68.622 Y55.514 E39.44843
G1 X57.932 Y44.824 E51.41917
G1 X57.294 Y45.982 E52.46578
G1 X56.629 Y45.317 E53.21027
G1 X67.360 Y56.048 E65.22662
G1 X66.055 Y56.538 E66.33055
G1 X57.404 Y47.887 E76.01772
G1 X55.927 Y48.206 E77.21434
G1 X64.737 Y57.016 E87.07987
G1 X63.376 Y57.451 E88.21100
G1 X54.367 Y48.442 E98.29909
G1 X52.784 Y48.654 E99.56399
G1 X61.964 Y57.834 E109.84393
G1 X60.534 Y58.200 E111.01254
G1 X51.133 Y48.798 E121.54025
G1 X49.412 Y48.874 E122.90382
G1 X59.394 Y58.855 E134.08088
G1 X58.562 Y59.819 E135.08895
G1 X47.651 Y48.908 E147.30669
G1 X45.862 Y48.914 E148.72386
G1 X53.617 Y56.669 E157.40835
G1 X52.667 Y57.515 E158.41538
G1 X44.403 Y49.251 E167.67014
G1 X43.931 Y50.575 E168.78299
G1 X51.642 Y58.285 E177.41728
G1 X50.544 Y58.983 E178.44734
G1 X43.394 Y51.833 E186.45364
G1 X42.769 Y53.004 E187.50441
G1 X49.385 Y59.620 E194.91291
G1 X48.380 Y60.411 E195.92530
G1 X42.083 Y54.113 E202.97746
G1 X41.349 Y55.175 E203.99938
G1 X47.791 Y61.617 E211.21360
G1 X47.356 Y62.977 E212.34442
G1 X40.500 Y56.121 E220.02167
G1 X39.447 Y56.864 E221.04183
G1 X46.976 Y64.394 E229.47292
G1 X45.944 Y65.157 E230.48945
G1 X46.669 Y65.881 E231.30045
G1 X43.015 Y62.228 E235.39189
G1 X41.826 Y62.835 E236.44856
G1 X44.761 Y65.769 E239.73410
G1 X43.856 Y66.660 E240.73948
G1 X40.596 Y63.400 E244.38968
G1 X40.437 Y65.037 E245.69174
G1 X43.122 Y67.721 E248.69767
G1 X42.460 Y68.856 E249.73734
G1 X40.384 Y66.779 E252.06244
G1 X40.490 Y68.681 E253.57076
G1 X41.876 Y70.067 E255.12195
G1 X40.779 Y70.765 E256.15173
G1 X41.351 Y71.338 E256.79304
G1 E256.69304 F0.00000
G92 E0
G1 Z3.500 F1200.000
G1 X40.773 Y59.986 F1200.000
G1 Z1.500 F1200.000
G1 E0.10000 F0.00000
G1 X38.021 Y57.234 E3.18112 F600.000
G1 X36.292 Y57.301 E4.55112
G1 X38.417 Y59.426 E6.93038
G1 E6.83038 F0.00000
G92 E0
G1 Z3.500 F1200.000
G1 X54.091 Y62.531 F1200.000
G1 Z1.500 F1200.000
G1 E0.10000 F0.00000
G1 X55.012 Y63.451 E1.13049 F600.000
G1 X56.316 Y62.960 E2.23400
G1 X54.611 Y61.254 E4.14341
G1 X55.066 Y59.914 E5.26416
G1 X57.085 Y61.933 E7.52437
G1 X57.829 Y60.882 E8.54427
G1 X55.478 Y58.531 E11.17670
G1 E11.07670 F0.00000
G92 E0
G1 Z3.500 F1200.000
G1 X62.436 Y42.146 F1200.000
G1 Z1.500 F1200.000
G1 E0.10000 F0.00000
G1 X73.439 Y53.148 E12.41999 F600.000
G1 X74.570 Y52.484 E13.45875
G1 X63.257 Y41.171 E26.12608
G1 E26.02608 F0.00000
G92 E0
G1 Z3.500 F1200.000
G1 X59.361 Y39.071 F1200.000
G1 Z1.500 F1200.000
G1 E0.10000 F0.00000
G1 X60.473 Y40.183 E1.34567 F600.000
G1 X61.908 Y39.822 E2.51699
G1 X59.431 Y37.345 E5.29126
G1 X59.102 Y35.221 E6.99302
G1 X74.431 Y50.549 E24.15798
G1 X75.302 Y49.624 E25.16379
G1 X56.615 Y30.937 E46.08943
G1 X57.974 Y30.501 E47.21990
G1 X76.277 Y48.804 E67.71574
G1 X77.247 Y47.978 E68.72430
G1 X59.295 Y30.026 E88.82679
G1 X60.596 Y29.532 E89.92914
G1 X78.190 Y47.126 E109.63080
G1 X79.076 Y46.216 E110.63624
G1 X61.859 Y28.999 E129.91593
G1 X63.062 Y28.406 E130.97769
G1 X79.914 Y45.259 E149.84934
G1 X80.730 Y44.279 E150.85887
G1 X64.237 Y27.786 E169.32774
G1 X65.393 Y27.147 E170.37387
G1 X81.495 Y43.249 E188.40462
G1 X82.230 Y42.188 E189.42647
G1 X66.479 Y26.437 E207.06350
G1 X67.548 Y25.710 E208.08689
G1 X82.896 Y41.058 E225.27351
G1 X83.498 Y39.864 E226.33220
G1 X68.570 Y24.937 E243.04794
G1 X69.516 Y24.087 E244.05475
G1 X82.319 Y36.890 E258.39067
G1 X82.509 Y35.284 E259.67085
G1 X70.428 Y23.203 E273.19874
G1 X71.267 Y22.247 E274.20624
G1 X82.637 Y33.617 E286.93841
G1 X82.679 Y31.863 E288.32752
G1 X72.030 Y21.214 E300.25243
G1 X72.671 Y20.060 E301.29791
G1 X82.563 Y29.951 E312.37416
G1 X82.239 Y27.832 E314.07203
G1 X72.381 Y17.974 E325.11034
G1 X73.154 Y16.951 E326.12542
G1 X81.582 Y25.380 E335.56372
G1 E335.46372 F0.00000
G92 E0
G1 Z3.500 F1200.000
G1 X80.226 Y22.228 F1200.000
G1 Z1.500 F1200.000
G1 E0.10000 F0.00000
G1 X73.889 Y15.891 E7.19543 F600.000
G1 X74.692 Y14.898 E8.20647
G1 X76.232 Y16.438 E9.93154
G1 E9.83154 F0.00000
G92 E0
G1 Z3.500 F1200.000
G1 X54.537 Y63.764 F1200.000
G1 Z1.500 F1200.000
G1 E0.10000 F0.00000
G1 X53.116 Y65.853 E2.07421 F600.000
G1 X51.332 Y68.379 E4.49133
G1 E4.39133 F0.00000
G92 E0
G1 Z3.500 F1200.000
G1 X47.287 Y73.563 F1200.000
G1 Z1.500 F1200.000
G1 E0.10000 F0.00000
G1 X47.850 Y74.126 E0.72147 F600.000
G1 E0.62147 F0.00000
G92 E0
G1 Z3.500 F1200.000
G1 X35.862 Y57.964 F1200.000
G1 Z1.500 F1200.000
G1 E0.10000 F0.00000
G1 X34.847 Y57.743 E0.91200 F600.000
G1 X33.245 Y57.321 E2.20622
G1 X32.646 Y57.135 E2.69692
G1 X31.543 Y56.771 E3.60453
G1 X29.798 Y56.148 E5.05230
G1 X27.574 Y55.238 E6.93070
G1 X27.389 Y55.116 E7.10353
G1 X27.033 Y54.786 E7.48233
G1 X26.418 Y53.375 E8.68571
G1 X26.111 Y52.778 E9.20998
G1 X25.667 Y52.026 E9.89231
G1 X25.081 Y51.247 E10.65405
G1 E10.55405 F0.00000
G92 E0
G1 Z3.500 F1200.000
G1 X46.545 Y25.586 F1200.000
G1 Z1.500 F1200.000
G1 E0.10000 F0.00000
G1 X47.528 Y25.735 E0.83034 F600.000
G1 X48.302 Y25.719 E1.39939
G1 X48.815 Y25.655 E1.77918
G1 X49.325 Y25.563 E2.15971
G1 X50.543 Y25.252 E3.08320
G1 X50.274 Y25.422 E3.31689
G1 X49.036 Y26.102 E4.35464
G1 X47.968 Y26.625 E5.22856
G1 X46.836 Y27.075 E6.12280
G1 X45.457 Y27.566 E7.19868
G1 X43.981 Y28.022 E8.33387
G1 X42.634 Y28.384 E9.35794
G1 X41.252 Y28.681 E10.39669
G1 X39.723 Y28.978 E11.54116
G1 X37.276 Y29.223 E13.34808
G1 X35.474 Y29.312 E14.67375
G1 X33.367 Y29.374 E16.22190
G1 X28.722 Y29.372 E19.63495
G1 X26.522 Y29.292 E21.25206
G1 X20.525 Y28.931 E25.66625
G1 X18.845 Y28.862 E26.90107
G1 X17.583 Y28.835 E27.82842
G1 X15.558 Y28.918 E29.31803
G1 X14.684 Y29.018 E29.96401
G1 X13.977 Y29.156 E30.49325
G1 X12.828 Y29.529 E31.38084
G1 X12.243 Y29.760 E31.84266
G1 X11.711 Y30.002 E32.27215
G1 X10.652 Y30.723 E33.21354
G1 X10.067 Y31.223 E33.77879
G1 X9.535 Y31.744 E34.32589
G1 X8.573 Y32.960 E35.46485
G1 X8.126 Y33.646 E36.06669
G1 X7.774 Y34.285 E36.60235
G1 X7.307 Y35.498 E37.55777
G1 X7.164 Y36.098 E38.01098
G1 X7.109 Y36.653 E38.42100
G1 X7.243 Y37.590 E39.11578
G1 X7.391 Y38.099 E39.50571
G1 X7.576 Y38.562 E39.87170
G1 X8.130 Y39.478 E40.65796
G1 X8.498 Y39.990 E41.12176
G1 X8.884 Y40.466 E41.57164
G1 X8.424 Y40.507 E41.91097
G1 X7.761 Y40.326 E42.41563
G1 X7.130 Y40.084 E42.91244
G1 X6.408 Y39.776 E43.48885
G1 X5.064 Y39.093 E44.59681
G1 X4.656 Y38.836 E44.95124
G1 X4.569 Y38.760 E45.03567
G1 X4.477 Y38.558 E45.19887
G1 X4.449 Y38.443 E45.28545
G1 X4.611 Y37.886 E45.71222
G1 X4.818 Y37.387 E46.10912
G1 X5.082 Y36.828 E46.56323
G1 X5.839 Y35.437 E47.72670
G1 X6.662 Y34.082 E48.89149
G1 X7.732 Y32.679 E50.18814
G1 X8.409 Y31.899 E50.94678
G1 X9.070 Y31.199 E51.65397
G1 X10.539 Y29.876 E53.10644
G1 X11.156 Y29.443 E53.66020
G1 X11.755 Y29.111 E54.16329
G1 X13.093 Y28.584 E55.21927
G1 X13.865 Y28.340 E55.81438
G1 X14.573 Y28.153 E56.35264
G1 X16.651 Y27.796 E57.90154
G1 X18.001 Y27.619 E58.90203
G1 X19.352 Y27.472 E59.90055
G1 X22.460 Y27.197 E62.19305
G1 X28.129 Y26.748 E66.37033
G1 X30.289 Y26.544 E67.96465
G1 X31.933 Y26.310 E69.18450
G1 X32.724 Y26.167 E69.77525
G1 X33.365 Y26.025 E70.25747
G1 X35.228 Y25.486 E71.68249
G1 X35.815 Y25.292 E72.13687
G1 X36.985 Y24.841 E73.05775
G1 X38.081 Y24.348 E73.94065
G1 X39.087 Y23.799 E74.78268
G1 X40.054 Y23.203 E75.61736
G1 X40.948 Y22.541 E76.43463
G1 X41.810 Y21.803 E77.26828
G1 X42.556 Y20.986 E78.08126
G1 X42.932 Y20.510 E78.52680
G1 X43.257 Y20.045 E78.94348
G1 X43.796 Y18.985 E79.81743
G1 X44.042 Y18.357 E80.31297
G1 X44.234 Y17.752 E80.77903
G1 X44.456 Y16.489 E81.72136
G1 X44.485 Y15.834 E82.20309
