; Translated for use with the MPSCARA Machine MPSCARA_V1
; File Quality: 2 mm
G28
G1 X154.406400 Y28.149300 F1200.000000
G1 X153.125800 Y26.883000 F500.000000
G1 X151.831300 Y25.631500 F500.000000
G1 X150.524300 Y24.396100 F500.000000
G1 X149.205900 Y23.177900 F500.000000
G1 X147.877500 Y21.978100 F500.000000
G1 X146.540300 Y20.797900 F500.000000
G1 X145.195600 Y19.638200 F500.000000
G1 X143.844600 Y18.500200 F500.000000
G1 X142.488400 Y17.384800 F500.000000
G1 X141.128300 Y16.293000 F500.000000
G1 X139.765400 Y15.225500 F500.000000
G1 X138.400700 Y14.183100 F500.000000
G1 X137.035300 Y13.166700 F500.000000
G1 X135.670000 Y12.176800 F500.000000
G1 X134.305800 Y11.213900 F500.000000
G1 X132.943600 Y10.278700 F500.000000
G1 X131.584100 Y9.371500 F500.000000
G1 X130.228000 Y8.492700 F500.000000
G1 X128.876000 Y7.642700 F500.000000
G1 X127.528800 Y6.821600 F500.000000
G1 X126.186700 Y6.029600 F500.000000
G1 X124.850400 Y5.266900 F500.000000
G1 X123.520200 Y4.533600 F500.000000
G1 X122.196500 Y3.829500 F500.000000
G1 X120.879500 Y3.154900 F500.000000
G1 X120.795000 Y4.253200 F500.000000
G1 X120.686700 Y5.341300 F500.000000
G1 X120.555400 Y6.420000 F500.000000
G1 X120.401600 Y7.490000 F500.000000
G1 X120.226000 Y8.552200 F500.000000
G1 X120.029100 Y9.607200 F500.000000
G1 X119.811400 Y10.655800 F500.000000
G1 X119.573400 Y11.698700 F500.000000
G1 X119.315400 Y12.736700 F500.000000
G1 X119.037700 Y13.770300 F500.000000
G1 X118.740800 Y14.800300 F500.000000
G1 X118.424900 Y15.827400 F500.000000
G1 X118.090000 Y16.852300 F500.000000
G1 X117.736600 Y17.875500 F500.000000
G1 X117.364500 Y18.897900 F500.000000
G1 X116.974000 Y19.920100 F500.000000
G1 X116.565000 Y20.942700 F500.000000
G1 X116.137500 Y21.966600 F500.000000
G1 X115.691500 Y22.992400 F500.000000
G1 X115.226800 Y24.020900 F500.000000
G1 X114.743200 Y25.052800 F500.000000
G1 X114.240500 Y26.088900 F500.000000
G1 X113.718400 Y27.130200 F500.000000
G1 X113.176500 Y28.177400 F500.000000
G1 X112.614400 Y29.231600 F500.000000
G1 X113.634500 Y29.681400 F500.000000
G1 X114.648900 Y30.149400 F500.000000
G1 X115.657600 Y30.635300 F500.000000
G1 X116.660300 Y31.138900 F500.000000
G1 X117.656900 Y31.659900 F500.000000
G1 X118.647400 Y32.198200 F500.000000
G1 X119.631400 Y32.753500 F500.000000
G1 X120.608800 Y33.325500 F500.000000
G1 X121.579400 Y33.914000 F500.000000
G1 X122.543000 Y34.518700 F500.000000
G1 X123.499300 Y35.139400 F500.000000
G1 X124.448100 Y35.775800 F500.000000
G1 X125.389200 Y36.427500 F500.000000
G1 X126.322200 Y37.094400 F500.000000
G1 X127.246800 Y37.776200 F500.000000
G1 X128.162900 Y38.472400 F500.000000
G1 X129.070000 Y39.182900 F500.000000
G1 X129.968000 Y39.907300 F500.000000
G1 X130.856400 Y40.645400 F500.000000
G1 X131.734900 Y41.396600 F500.000000
G1 X132.603300 Y42.160900 F500.000000
G1 X133.461100 Y42.937800 F500.000000
G1 X134.308200 Y43.727000 F500.000000
G1 X135.144100 Y44.528200 F500.000000
G1 X135.968400 Y45.341000 F500.000000
G1 X136.791300 Y44.555400 F500.000000
G1 X137.603800 Y43.780800 F500.000000
G1 X138.406400 Y43.016600 F500.000000
G1 X139.199800 Y42.262400 F500.000000
G1 X139.984400 Y41.517800 F500.000000
G1 X140.760700 Y40.782200 F500.000000
G1 X141.529100 Y40.055300 F500.000000
G1 X142.290000 Y39.336800 F500.000000
G1 X143.043900 Y38.626200 F500.000000
G1 X143.791200 Y37.923300 F500.000000
G1 X144.532100 Y37.227900 F500.000000
G1 X145.267000 Y36.539500 F500.000000
G1 X145.996300 Y35.858000 F500.000000
G1 X146.720100 Y35.183200 F500.000000
G1 X147.439000 Y34.514800 F500.000000
G1 X148.153000 Y33.852700 F500.000000
G1 X148.862500 Y33.196600 F500.000000
G1 X149.567700 Y32.546500 F500.000000
G1 X150.269000 Y31.902000 F500.000000
G1 X150.966500 Y31.263200 F500.000000
G1 X151.660500 Y30.629900 F500.000000
G1 X152.351300 Y30.001900 F500.000000
G1 X153.039000 Y29.379200 F500.000000
G1 X153.724000 Y28.761700 F500.000000
G1 X154.406400 Y28.149300 F500.000000
