; generated by Slic3r 1.2.9 on 2017-08-17 at 15:26:00

; external perimeters extrusion width = 1.15mm
; perimeters extrusion width = 1.47mm
; infill extrusion width = 1.47mm
; solid infill extrusion width = 1.47mm
; top infill extrusion width = 1.47mm

M107
G28 ; home all axes
G1 Z5  F5000 ; lift nozzle

G21 ; set units to millimeters
G90 ; use absolute coordinates
M82 ; use absolute distances for extrusion
G92 E0
G1 Z0.800 F600.000
G1 E-0.10000 F0.00000
G92 E0
G1 Z5.800 F600.000
G1 X13.830 Y6.827 F600.000
G1 Z0.800 F600.000
G1 E0.10000 F0.00000
G1 X10.154 Y21.451 E0.15146 F300.000
G1 X13.782 Y21.451 E0.16384
G1 X13.782 Y24.526 E0.17433
G1 X1.730 Y24.526 E0.21546
G1 X1.730 Y21.451 E0.22595
G1 X4.473 Y21.451 E0.23531
G1 X9.794 Y0.474 E0.30916
G1 X15.894 Y0.474 E0.32998
G1 X19.261 Y13.412 E0.37561
G1 X20.581 Y13.407 E0.38011
G1 X23.832 Y0.474 E0.42562
G1 X29.882 Y0.474 E0.44626
G1 X35.450 Y21.451 E0.52033
G1 X38.270 Y21.451 E0.52995
G1 X38.270 Y24.526 E0.54044
G1 X29.673 Y24.526 E0.56978
G1 X29.673 Y21.451 E0.58027
G1 X33.112 Y21.451 E0.59200
G1 X29.192 Y6.870 E0.64353
G1 X27.878 Y6.880 E0.64802
G1 X23.442 Y24.526 E0.71011
G1 X19.848 Y24.526 E0.72238
G1 X15.147 Y6.819 E0.78490
G1 X14.003 Y6.826 E0.78880
G1 E0.68880 F0.00000
G92 E0
G1 Z5.800 F600.000
G1 X16.157 Y6.098 F600.000
G1 Z0.800 F600.000
G1 E0.10000 F0.00000
G1 X18.269 Y14.131 E0.12834 F300.000
G1 E0.02834 F0.00000
G92 E0
G1 Z5.800 F600.000
G1 X20.720 Y24.135 F600.000
G1 Z0.800 F600.000
G1 E0.10000 F0.00000
G1 X20.066 Y23.480 E0.10329 F300.000
G1 X19.305 Y20.616 E0.11382
G1 X22.824 Y24.135 E0.13151
G1 X23.550 Y22.757 E0.13704
G1 X18.545 Y17.752 E0.16221
G1 X17.784 Y14.887 E0.17274
G1 X23.973 Y21.076 E0.20385
G1 X24.396 Y19.395 E0.21001
G1 X19.217 Y14.216 E0.23604
G1 X20.836 Y13.731 E0.24205
G1 X24.818 Y17.713 E0.26206
G1 X25.241 Y16.032 E0.26823
G1 X21.259 Y12.050 E0.28824
G1 X21.681 Y10.369 E0.29441
G1 X25.663 Y14.351 E0.31442
G1 X26.086 Y12.670 E0.32059
G1 X22.104 Y8.687 E0.34060
G1 X22.527 Y7.006 E0.34677
G1 X26.509 Y10.988 E0.36678
G1 X26.931 Y9.307 E0.37295
G1 X22.949 Y5.325 E0.39296
G1 X23.372 Y3.643 E0.39913
G1 X27.354 Y7.626 E0.41914
G1 X28.320 Y6.488 F600.000
G1 X23.794 Y1.962 E0.44189 F300.000
G1 X24.802 Y0.865 E0.44719
G1 X29.842 Y5.906 E0.47253
G1 X30.424 Y4.384 E0.47832
G1 X26.906 Y0.865 E0.49601
G1 X29.009 Y0.865 E0.50348
G1 X29.664 Y1.520 E0.50677
G1 E0.40677 F0.00000
G92 E0
G1 Z5.800 F600.000
G1 X30.193 Y6.147 F600.000
G1 Z0.800 F600.000
G1 E0.10000 F0.00000
G1 X34.473 Y22.165 E0.15658 F300.000
G1 E0.05658 F0.00000
G92 E0
G1 Z5.800 F600.000
G1 X37.879 Y22.488 F600.000
G1 Z0.800 F600.000
G1 E0.10000 F0.00000
G1 X37.233 Y21.842 E0.10340 F300.000
G1 X35.431 Y22.244 E0.11027
G1 X37.321 Y24.135 E0.12023
G1 X35.118 Y24.135 E0.12843
G1 X33.692 Y22.708 E0.13594
G1 X32.914 Y24.135 E0.14199
G1 X30.622 Y21.842 E0.15406
G1 X30.065 Y23.489 E0.16053
G1 X30.711 Y24.135 E0.16393
G1 E0.06393 F0.00000
G92 E0
G1 Z5.800 F600.000
G1 X10.922 Y21.842 F600.000
G1 Z0.800 F600.000
G1 E0.10000 F0.00000
G1 X13.215 Y24.135 E0.11144 F300.000
G1 X11.125 Y24.135 E0.11882
G1 X5.544 Y18.553 E0.14668
G1 X5.967 Y16.887 E0.15275
G1 X9.961 Y20.881 E0.17269
G1 X10.381 Y19.211 E0.17877
G1 X6.390 Y15.220 E0.19870
G1 X6.812 Y13.553 E0.20477
G1 X10.801 Y17.541 E0.22468
G1 X11.220 Y15.872 E0.23076
G1 X7.235 Y11.886 E0.25065
G1 X7.658 Y10.220 E0.25672
G1 X11.640 Y14.202 E0.27660
G1 X12.060 Y12.532 E0.28268
G1 X8.081 Y8.553 E0.30254
G1 X8.503 Y6.886 E0.30861
G1 X12.479 Y10.862 E0.32846
G1 X12.899 Y9.193 E0.33454
G1 X8.926 Y5.220 E0.35438
G1 X9.349 Y3.553 E0.36045
G1 X13.319 Y7.523 E0.38027
G1 X14.320 Y6.435 F600.000
G1 X9.772 Y1.886 E0.40297 F300.000
G1 X10.840 Y0.865 E0.40819
G1 X15.825 Y5.850 E0.43307
G1 X16.408 Y4.344 E0.43878
G1 X12.930 Y0.865 E0.45614
G1 X15.019 Y0.865 E0.46352
G1 X15.673 Y1.519 E0.46678
G1 E0.36678 F0.00000
G92 E0
G1 Z5.800 F600.000
G1 X9.036 Y24.135 F600.000
G1 Z0.800 F600.000
G1 E0.10000 F0.00000
G1 X5.121 Y20.220 E0.11954 F300.000
G1 X4.654 Y21.842 E0.12550
G1 X6.946 Y24.135 E0.13695
G1 X4.857 Y24.135 E0.14432
G1 X2.564 Y21.842 E0.15577
G1 X2.121 Y23.489 E0.16179
G1 X2.767 Y24.135 E0.16501
G1 E0.06501 F0.00000
G92 E0
G1 Z5.800 F600.000
G1 Z5  F5000 ; lift nozzle
G28 X Y ; Home X, Y
M84     ; disable motors

; filament used = 1.7mm (1.1cm3)

; avoid_crossing_perimeters = 0
; bed_shape = 0x0,40x0,40x25,0x25
; bed_temperature = 0
; before_layer_gcode = 
; bridge_acceleration = 0
; bridge_fan_speed = 100
; brim_width = 0
; complete_objects = 0
; cooling = 1
; default_acceleration = 0
; disable_fan_first_layers = 3
; duplicate_distance = 6
; end_gcode = G1 Z5  F5000 ; lift nozzle\nG28 X Y ; Home X, Y\nM84     ; disable motors\n
; extruder_clearance_height = 20
; extruder_clearance_radius = 20
; extruder_offset = 0x0
; extrusion_axis = E
; extrusion_multiplier = 2
; fan_always_on = 0
; fan_below_layer_time = 60
; filament_colour = #FFFFFF
; filament_diameter = 29.2
; first_layer_acceleration = 0
; first_layer_bed_temperature = 0
; first_layer_extrusion_width = 200%
; first_layer_speed = 5
; first_layer_temperature = 0
; gcode_arcs = 0
; gcode_comments = 0
; gcode_flavor = reprap
; infill_acceleration = 0
; infill_first = 0
; layer_gcode = 
; max_fan_speed = 100
; max_print_speed = 5
; max_volumetric_speed = 0
; min_fan_speed = 35
; min_print_speed = 10
; min_skirt_length = 0
; notes = 
; nozzle_diameter = 1.15
; only_retract_when_crossing_perimeters = 1
; ooze_prevention = 0
; output_filename_format = [input_filename_base].g
; perimeter_acceleration = 0
; post_process = 
; pressure_advance = 0
; resolution = 0
; retract_before_travel = 2
; retract_layer_change = 0
; retract_length = 0.1
; retract_length_toolchange = 10
; retract_lift = 5
; retract_restart_extra = 0
; retract_restart_extra_toolchange = 0
; retract_speed = 0
; skirt_distance = 3
; skirt_height = 1
; skirts = 0
; slowdown_below_layer_time = 5
; spiral_vase = 0
; standby_temperature_delta = -5
; start_gcode = G28 ; home all axes\nG1 Z5  F5000 ; lift nozzle\n
; temperature = 0
; threads = 2
; toolchange_gcode = 
; travel_speed = 10
; use_firmware_retraction = 0
; use_relative_e_distances = 0
; use_volumetric_e = 0
; vibration_limit = 0
; wipe = 0
; z_offset = 0
; dont_support_bridges = 1
; extrusion_width = 0
; first_layer_height = 100%
; infill_only_where_needed = 0
; interface_shells = 0
; layer_height = 0.8
; raft_layers = 0
; seam_position = aligned
; support_material = 0
; support_material_angle = 0
; support_material_contact_distance = 0.2
; support_material_enforce_layers = 0
; support_material_extruder = 1
; support_material_extrusion_width = 0
; support_material_interface_extruder = 1
; support_material_interface_layers = 3
; support_material_interface_spacing = 0
; support_material_interface_speed = 100%
; support_material_pattern = pillars
; support_material_spacing = 2.5
; support_material_speed = 5
; support_material_threshold = 0
; xy_size_compensation = 0
; bottom_solid_layers = 2
; bridge_flow_ratio = 1
; bridge_speed = 5
; external_fill_pattern = rectilinear
; external_perimeter_extrusion_width = 0
; external_perimeter_speed = 5
; external_perimeters_first = 0
; extra_perimeters = 0
; fill_angle = 45
; fill_density = 50%
; fill_pattern = line
; gap_fill_speed = 5
; infill_every_layers = 1
; infill_extruder = 1
; infill_extrusion_width = 0
; infill_overlap = 50%
; infill_speed = 5
; overhangs = 0
; perimeter_extruder = 1
; perimeter_extrusion_width = 0
; perimeter_speed = 5
; perimeters = 1
; small_perimeter_speed = 5
; solid_infill_below_area = 70
; solid_infill_every_layers = 0
; solid_infill_extruder = 1
; solid_infill_extrusion_width = 0
; solid_infill_speed = 5
; thin_walls = 0
; top_infill_extrusion_width = 0
; top_solid_infill_speed = 5
; top_solid_layers = 1
