; Translated for use with the MPSCARA Machine MPSCARA_V1
; File Quality: 2 mm
; generated by Slic3r 1.2.9 on 2017-08-17 at 15:26:00

; external perimeters extrusion width = 1.15mm
; perimeters extrusion width = 1.47mm
; infill extrusion width = 1.47mm
; solid infill extrusion width = 1.47mm
; top infill extrusion width = 1.47mm

M107
G28 ; home all axes
G1 Z5.000000 F5000.000000

G21 ; set units to millimeters
G90 ; use absolute coordinates
M82 ; use absolute distances for extrusion
G92 E0
G1 Z0.800000 F600.000000
G1 E-0.100000 F0.000000
G92 E0
G1 Z5.800000 F600.000000
G1 X143.597700 Y22.441200 F600.000000
G1 Z0.800000 F600.000000
G1 E0.100000 F0.000000
G1 X143.389800 Y23.462800 E0.106825 F181.226170
G1 X143.161200 Y24.475000 E0.113650 F178.794090
G1 X142.912400 Y25.478600 E0.120476 F176.422950
G1 X142.644200 Y26.474400 E0.127301 F174.104400
G1 X142.357000 Y27.463300 E0.134127 F171.830910
G1 X142.051400 Y28.445900 E0.140952 F169.595620
G1 X141.727800 Y29.423100 E0.147778 F167.392310
G1 X141.546000 Y29.948200 E0.151460 F167.392310
G1 X140.456200 Y28.997100 E0.158285 F216.719430
G1 X139.562500 Y28.234600 E0.163840 F216.719430
G1 X138.966300 Y29.028400 E0.170663 F158.930260
G1 X138.641800 Y29.456100 E0.174330 F158.930260
G1 X139.711000 Y30.368700 E0.181155 F211.083050
G1 X140.771200 Y31.296600 E0.187981 F211.505280
G1 X141.821600 Y32.239200 E0.194806 F211.837570
G1 X142.861700 Y33.196000 E0.201632 F212.078530
G1 X143.890900 Y34.166400 E0.208457 F212.227120
G1 X144.908500 Y35.149900 E0.215283 F212.282650
G1 X144.934800 Y35.175600 E0.215460 F212.282650
G1 X145.644700 Y34.483700 E0.222283 F160.248340
G1 X146.023800 Y34.114300 E0.225950 F160.248340
G1 X144.978600 Y33.103200 E0.232775 F218.078790
G1 X144.587400 Y32.730900 E0.235310 F218.078790
G1 X144.977500 Y31.794500 E0.242135 F167.082140
G1 X145.351600 Y30.854200 E0.248960 F169.197570
G1 X145.709400 Y29.909300 E0.255785 F171.336240
G1 X146.050400 Y28.959200 E0.262610 F173.503690
G1 X146.374200 Y28.003100 E0.269435 F175.706020
G1 X146.680200 Y27.040200 E0.276260 F177.950030
G1 X146.967900 Y26.069800 E0.283085 F180.243270
G1 X147.236700 Y25.091000 E0.289910 F182.594180
G1 X147.485800 Y24.103000 E0.296735 F185.012200
G1 X147.714500 Y23.104800 E0.303559 F187.507890
G1 X147.886300 Y22.277300 E0.309160 F187.507890
G1 X146.556700 Y21.101100 E0.315986 F265.880170
G1 X145.219400 Y19.945300 E0.322812 F264.742690
G1 X143.875600 Y18.810900 E0.329639 F263.429090
G1 X143.808200 Y18.754700 E0.329980 F263.429090
G1 X143.027200 Y19.271500 E0.336806 F178.020600
G1 X142.247500 Y19.797600 E0.343632 F176.249750
G1 X141.468500 Y20.332800 E0.350458 F174.470750
G1 X140.689800 Y20.877100 E0.357284 F172.682170
G1 X139.911100 Y21.430300 E0.364111 F170.882700
G1 X139.131700 Y21.992300 E0.370937 F169.071080
G1 X138.597700 Y22.382000 E0.375610 F169.071080
G1 X137.805600 Y21.756000 E0.380110 F230.131090
G1 X137.967000 Y20.697200 E0.386935 F180.421610
G1 X138.105900 Y19.628600 E0.393761 F183.042740
G1 X138.221600 Y18.549400 E0.400586 F185.748040
G1 X138.313100 Y17.458700 E0.407412 F188.547930
G1 X138.379700 Y16.355600 E0.414237 F191.453710
G1 X138.420400 Y15.239100 E0.421063 F194.477710
G1 X138.432600 Y14.485700 E0.425620 F194.477710
G1 X137.073300 Y13.471900 E0.432443 F254.495680
G1 X135.713800 Y12.484300 E0.439266 F252.321240
G1 X134.355300 Y11.523600 E0.446089 F250.041130
G1 X134.321300 Y11.499900 E0.446260 F250.041130
G1 X133.703000 Y12.195000 E0.453086 F173.794780
G1 X133.078600 Y12.892600 E0.459912 F172.071840
G1 X132.448200 Y13.593100 E0.466738 F170.333260
G1 X131.811500 Y14.296600 E0.473564 F168.578280
G1 X131.168600 Y15.003500 E0.480389 F166.806120
G1 X130.519200 Y15.714000 E0.487215 F165.016040
G1 X129.863300 Y16.428400 E0.494040 F163.207270
G1 X129.200800 Y17.147000 E0.500866 F161.379030
G1 X128.531300 Y17.870100 E0.507691 F159.530510
G1 X127.854800 Y18.598000 E0.514517 F157.660880
G1 X127.272800 Y19.222000 E0.520330 F157.660880
G1 X126.115400 Y18.507400 E0.527153 F203.424570
G1 X125.640200 Y18.220600 E0.529950 F203.424570
G1 X125.250300 Y19.189100 E0.536773 F157.703130
G1 X125.033800 Y19.708800 E0.540440 F157.703130
G1 X126.169200 Y20.396700 E0.547266 F199.551600
G1 X127.301900 Y21.105000 E0.554092 F200.864000
G1 X128.431500 Y21.833400 E0.560917 F202.122190
G1 X129.557600 Y22.581600 E0.567743 F203.322600
G1 X129.893000 Y22.808800 E0.569780 F203.322600
G1 X130.358000 Y21.894700 E0.576603 F159.287820
G1 X130.601900 Y21.402900 E0.580270 F159.287820
G1 X129.452200 Y20.628500 E0.587092 F207.457780
G1 X128.623000 Y20.083900 E0.592000 F207.457780
G1 X129.326500 Y19.375600 E0.598826 F158.606250
G1 X130.023700 Y18.673000 E0.605652 F160.464140
G1 X130.714700 Y17.975800 E0.612478 F162.300750
G1 X131.399900 Y17.283900 E0.619304 F164.116810
G1 X132.079400 Y16.597000 E0.626129 F165.913000
G1 X132.753500 Y15.914900 E0.632955 F167.690000
G1 X133.422300 Y15.237300 E0.639780 F169.448430
G1 X133.787500 Y14.866900 E0.643530 F169.448430
G1 X134.630400 Y15.468100 E0.648020 F236.826200
G1 X134.586000 Y16.585100 E0.654845 F185.530890
G1 X134.516800 Y17.690800 E0.661670 F182.771240
G1 X134.423400 Y18.785900 E0.668495 F180.095590
G1 X134.306500 Y19.871200 E0.675320 F177.495110
G1 X134.166800 Y20.947600 E0.682145 F174.961590
G1 X134.005000 Y22.015800 E0.688970 F172.487400
G1 X133.821600 Y23.076600 E0.695795 F170.065460
G1 X133.617100 Y24.130700 E0.702620 F167.689200
G1 X133.392000 Y25.178700 E0.709444 F165.352480
G1 X133.368900 Y25.280700 E0.710110 F165.352480
G1 X134.473600 Y26.112000 E0.716938 F207.840950
G1 X135.349600 Y26.787400 E0.722380 F207.840950
G1 X136.164700 Y26.195800 E0.729205 F159.748200
G1 X136.977500 Y25.614100 E0.736030 F161.661930
G1 X137.788300 Y25.042300 E0.742855 F163.560030
G1 X138.597800 Y24.480200 E0.749680 F165.443850
G1 X139.406300 Y23.927900 E0.756505 F167.314770
G1 X140.214300 Y23.385500 E0.763330 F169.174240
G1 X141.022300 Y22.853000 E0.770156 F171.023780
G1 X141.830800 Y22.330500 E0.776981 F172.865010
G1 X142.640200 Y21.818300 E0.783807 F174.699670
G1 X142.770000 Y21.737200 E0.784900 F174.699670
G1 X143.489100 Y22.348200 E0.788800 F247.380820
G1 E0.688800 F0.000000
G92 E0
G1 Z5.800000 F600.000000
G1 X142.451600 Y21.084300 E0.000000 F493.731100
G1 X142.308000 Y20.911700 F493.731100
G1 Z0.800000 F600.000000
G1 E0.100000 F0.000000
G1 X141.513500 Y21.436800 E0.106824 F173.335940
G1 X140.719600 Y21.971600 E0.113648 F171.519390
G1 X139.925800 Y22.515800 E0.120472 F169.692970
G1 X139.131700 Y23.069400 E0.127296 F167.855280
G1 X139.010100 Y23.154900 E0.128340 F167.855280
G1 E0.028340 F0.000000
G92 E0
G1 Z5.800000 F600.000000
G1 X138.232000 Y23.737900 E0.000000 F330.886760
G1 X137.451900 Y24.329600 E0.000000 F327.184320
G1 X136.669500 Y24.929900 E0.000000 F323.448040
G1 X135.884300 Y25.539000 E0.000000 F319.675830
G1 X135.095900 Y26.156900 E0.000000 F315.865600
G1 X134.977400 Y26.250300 F315.865600
G1 Z0.800000 F600.000000
G1 E0.100000 F0.000000
G1 X135.517000 Y26.252300 E0.103290 F178.109620
G1 X136.327100 Y25.661400 E0.110397 F160.636330
G1 X136.716500 Y25.380300 E0.113820 F160.636330
G1 X135.543600 Y25.356300 E0.120929 F180.671080
G1 X134.379400 Y25.357100 E0.128038 F178.001630
G1 X133.813900 Y25.366300 E0.131510 F178.001630
G1 X133.766000 Y24.465700 E0.137040 F176.860340
G1 X134.925600 Y24.451900 E0.144152 F180.479900
G1 X136.094000 Y24.462700 E0.151264 F183.208610
G1 X137.271900 Y24.498800 E0.158376 F186.004280
G1 X137.911000 Y24.529000 E0.162210 F186.004280
G1 X138.715700 Y23.966600 E0.169314 F166.227020
G1 X139.103400 Y23.698900 E0.172740 F166.227020
G1 X137.908100 Y23.622200 E0.179849 F188.865400
G1 X136.724000 Y23.572000 E0.186958 F185.992520
G1 X135.550100 Y23.547500 E0.194067 F183.194230
G1 X134.385900 Y23.548200 E0.201175 F180.464100
G1 X133.950200 Y23.554800 E0.203850 F180.464100
G1 X134.118800 Y22.639100 E0.210010 F169.265620
G1 X135.280700 Y22.632700 E0.217118 F183.826170
G1 X136.452600 Y22.651400 E0.224226 F186.642530
G1 X137.635100 Y22.696000 E0.231334 F189.536440
G1 X138.424300 Y22.740100 E0.236040 F189.536440
G1 X137.574500 Y21.774700 E0.242050 F228.244200
G1 X136.391800 Y21.731100 E0.249157 F187.809430
G1 X135.220100 Y21.713600 E0.256263 F184.961900
G1 X134.272100 Y21.718100 E0.262060 F184.961900
G1 X134.408300 Y20.791200 E0.268230 F173.463600
G1 X135.572600 Y20.791000 E0.275337 F187.117540
G1 X136.748000 Y20.816500 E0.282443 F190.026350
G1 X137.715500 Y20.856900 E0.288240 F190.026350
G1 X137.840200 Y19.932400 E0.294410 F179.721480
G1 X136.653100 Y19.882200 E0.301517 F191.141680
G1 X135.478200 Y19.858600 E0.308623 F188.201740
G1 X134.528300 Y19.858600 E0.314420 F188.201740
G1 X134.630600 Y18.918600 E0.320590 F177.825490
G1 X135.797200 Y18.923200 E0.327696 F190.327000
G1 X136.975800 Y18.954100 E0.334802 F193.331910
G1 X137.947300 Y18.999300 E0.340600 F193.331910
G1 X138.036300 Y18.058400 E0.346770 F184.320520
G1 X136.845000 Y18.002800 E0.353877 F194.394980
G1 X135.667100 Y17.974400 E0.360983 F191.359340
G1 X134.715600 Y17.970900 E0.366780 F191.359340
G1 X134.782900 Y17.016300 E0.372950 F182.361250
G1 X135.951400 Y17.024600 E0.380057 F193.461630
G1 X137.133200 Y17.059800 E0.387163 F196.566150
G1 X138.107600 Y17.109100 E0.392960 F196.566150
G1 X138.159500 Y16.149300 E0.399130 F189.147410
G1 X136.964500 Y16.089900 E0.406236 F197.538990
G1 X135.784200 Y16.058400 E0.413342 F194.406000
G1 X134.831100 Y16.052800 E0.419140 F194.406000
G1 X134.414800 Y15.083600 F435.920780
G1 X135.579200 Y15.083500 E0.426249 F195.272950
G1 X136.757700 Y15.110600 E0.433357 F198.431130
G1 X137.951300 Y15.165900 E0.440466 F201.715220
G1 X138.192400 Y15.180400 E0.441890 F201.715220
G1 X137.706900 Y14.170600 E0.447190 F232.575620
G1 X136.515500 Y14.120700 E0.454300 F199.214060
G1 X135.339500 Y14.099200 E0.461410 F196.035600
G1 X134.178100 Y14.104900 E0.468519 F192.975430
G1 X133.528800 Y14.119800 E0.472530 F192.975430
G1 X133.389800 Y13.132200 E0.478320 F198.392510
G1 X134.541400 Y13.108100 E0.485430 F195.311260
G1 X135.707400 Y13.110800 E0.492540 F198.448880
G1 X136.281800 Y13.122200 E0.496010 F198.448880
G1 X134.927500 Y12.152600 E0.503114 F250.197110
G1 X134.857800 Y12.103400 E0.503480 F250.197110
G1 X134.320900 Y12.107900 E0.506770 F197.580060
G1 E0.406770 F0.000000
G92 E0
G1 Z5.800000 F600.000000
G1 X133.874800 Y12.955600 E0.000000 F350.381450
G1 X133.415900 Y13.799900 E0.000000 F346.542480
G1 X133.262300 Y14.076700 F346.542480
G1 Z0.800000 F600.000000
G1 E0.100000 F0.000000
G1 X132.612200 Y14.765200 E0.106825 F168.997190
G1 X131.956300 Y15.457600 E0.113650 F167.232700
G1 X131.294600 Y16.154000 E0.120475 F165.449870
G1 X130.626900 Y16.854800 E0.127300 F163.648000
G1 X129.953000 Y17.560100 E0.134125 F161.826390
G1 X129.272800 Y18.270400 E0.140950 F159.984290
G1 X128.585900 Y18.985700 E0.147775 F158.120930
G1 X127.892200 Y19.706500 E0.154601 F156.235520
G1 X127.689800 Y19.916600 E0.156580 F156.235520
G1 E0.056580 F0.000000
G92 E0
G1 Z5.800000 F600.000000
G1 X126.506100 Y19.289700 E0.000000 F400.403980
G1 X125.665200 Y18.858200 F400.403980
G1 Z0.800000 F600.000000
G1 E0.100000 F0.000000
G1 X126.164600 Y18.772300 E0.103400 F167.666410
G1 X127.122600 Y19.606400 E0.110270 F206.176070
G1 X126.022700 Y19.781100 E0.117721 F167.257050
G1 X125.653500 Y19.844700 E0.120230 F167.257050
G1 X126.790600 Y20.544600 E0.127674 F200.778600
G1 X126.905800 Y20.616800 E0.128430 F200.778600
G1 X128.013500 Y20.460300 E0.135875 F170.489280
G1 X128.023200 Y20.459000 E0.135940 F170.489280
G1 X128.155200 Y21.413900 E0.141990 F180.742580
G1 X129.272700 Y21.283100 E0.149436 F172.108840
G1 X129.970100 Y21.213100 E0.154060 F172.108840
G1 X129.914100 Y22.184200 E0.160530 F172.891200
G1 X129.400100 Y22.235000 E0.163930 F172.344410
G1 E0.063930 F0.000000
G92 E0
G1 Z5.800000 F600.000000
G1 X130.573500 Y22.891400 E0.000000 F405.237200
G1 X131.746200 Y23.570000 E0.000000 F408.457620
G1 X132.917900 Y24.270500 E0.000000 F411.585840
G1 X134.088100 Y24.992700 E0.000000 F414.613340
G1 X135.256500 Y25.736400 E0.000000 F417.531390
G1 X136.422500 Y26.501300 E0.000000 F420.331190
G1 X137.585600 Y27.286900 E0.000000 F423.003900
G1 X138.745400 Y28.093000 E0.000000 F425.540700
G1 X139.901300 Y28.919200 E0.000000 F427.932870
G1 X141.007600 Y29.731400 F427.932870
G1 Z0.800000 F600.000000
G1 E0.100000 F0.000000
G1 X139.806800 Y29.616700 E0.107056 F184.725060
G1 X139.065200 Y29.558500 E0.111440 F184.725060
G1 X140.135300 Y30.478700 E0.118502 F211.925690
G1 X140.183300 Y30.520400 E0.118820 F211.925690
G1 X141.384900 Y30.642600 E0.125879 F187.058830
G1 X142.595900 Y30.791100 E0.132938 F189.881620
G1 X143.816600 Y30.966700 E0.139997 F192.770880
G1 X144.981900 Y31.158300 E0.146680 F192.770880
G1 X145.294100 Y30.346200 E0.152750 F168.221450
G1 X144.057300 Y30.136100 E0.159810 F194.776000
G1 X142.831400 Y29.953900 E0.166871 F191.819990
G1 X141.829000 Y29.824400 E0.172690 F191.819990
G1 X142.115300 Y28.986300 E0.178770 F166.783450
G1 X143.337700 Y29.153400 E0.185832 F194.452160
G1 X144.571400 Y29.348400 E0.192894 F197.496490
G1 X145.594300 Y29.530200 E0.198700 F197.496490
G1 X145.882500 Y28.710600 E0.204770 F171.879000
G1 X144.632500 Y28.483600 E0.211830 F199.145900
G1 X143.394900 Y28.285600 E0.218889 F196.038320
G1 X142.388400 Y28.144400 E0.224680 F196.038320
G1 X142.648500 Y27.299100 E0.230760 F170.557500
G1 X143.882000 Y27.480900 E0.237818 F198.716520
G1 X145.128000 Y27.691500 E0.244876 F201.922500
G1 X146.157300 Y27.886000 E0.250650 F201.922500
G1 X146.418600 Y27.056700 E0.256720 F175.682180
G1 X145.154700 Y26.813400 E0.263780 F203.556540
G1 X143.904500 Y26.600300 E0.270841 F200.282560
G1 X142.894600 Y26.448200 E0.276600 F200.282560
G1 X143.126700 Y25.592100 E0.282680 F174.465250
G1 X144.372000 Y25.788300 E0.289739 F203.042420
G1 X145.631300 Y26.014600 E0.296797 F206.426380
G1 X146.666700 Y26.221500 E0.302540 F206.426380
G1 X146.901400 Y25.380800 E0.308610 F179.549930
G1 X145.622700 Y25.121400 E0.315670 F208.030540
G1 X144.359300 Y24.893400 E0.322731 F204.573850
G1 X143.344900 Y24.730800 E0.328460 F204.573850
G1 X143.547500 Y23.863000 E0.334540 F178.500220
G1 X144.805200 Y24.073100 E0.341602 F207.395970
G1 X146.078400 Y24.314400 E0.348664 F210.975000
G1 X147.120800 Y24.533300 E0.354380 F210.975000
G1 X147.325700 Y23.678300 E0.360450 F183.641670
G1 X146.031500 Y23.403100 E0.367510 F212.545340
G1 X144.754300 Y23.160600 E0.374571 F208.888880
G1 X143.735200 Y22.988100 E0.380270 F208.888880
G1 X143.389800 Y22.023600 F434.313790
G1 X144.653400 Y22.233700 E0.387328 F210.249270
G1 X145.933800 Y22.476000 E0.394386 F213.980000
G1 X147.232000 Y22.751400 E0.401444 F217.863060
G1 X147.515200 Y22.815500 E0.402970 F217.863060
G1 X147.088500 Y21.807800 E0.408190 F232.131260
G1 X145.786900 Y21.533000 E0.415248 F215.302750
G1 X144.503700 Y21.291900 E0.422306 F211.500830
G1 X143.238000 Y21.083300 E0.429365 F207.849840
G1 X142.580200 Y20.986500 E0.433070 F207.849840
G1 X142.567900 Y20.060900 E0.438780 F193.732680
G1 X143.828300 Y20.254400 E0.445838 F211.190570
G1 X145.106500 Y20.480300 E0.452896 F214.997590
G1 X145.700300 Y20.595400 E0.456140 F214.997590
G1 X144.364600 Y19.456400 E0.463206 F262.932180
G1 X144.305000 Y19.406200 E0.463520 F262.932180
G1 X143.714900 Y19.306000 E0.466780 F214.326110
G1 E0.366780 F0.000000
G92 E0
G1 Z5.800000 F600.000000
G1 X143.629400 Y20.395800 E0.000000 F382.068910
G1 X143.519000 Y21.472400 E0.000000 F376.420600
G1 X143.384600 Y22.536700 E0.000000 F370.979090
G1 X143.227200 Y23.589800 E0.000000 F365.720690
G1 X143.047500 Y24.632600 E0.000000 F360.623850
G1 X142.846200 Y25.665900 E0.000000 F355.668980
G1 X142.624100 Y26.690500 E0.000000 F350.838220
G1 X142.381800 Y27.707300 E0.000000 F346.115320
G1 X142.119800 Y28.717100 E0.000000 F341.485470
