;FLAVOR:Marlin
;TIME:2307
;Filament used: 0.550103m
;Layer height: 0.1
;Generated with Cura_SteamEngine 3.4.1
M104 S200
M109 S200
M82 ;absolute extrusion mode
G28 ;Home
G1 Z15.0 F6000 ;Move the platform down 15mm
;Prime the extruder
G92 E0
G1 F200 E3
G92 E0
G92 E0
G1 F1500 E-6.5
;LAYER_COUNT:199
;LAYER:0
M107
G0 F3600 X34.623 Y34.349 Z0.3
;TYPE:SKIRT
G1 F1500 E0
G1 F1800 X35.222 Y33.834 E0.01486
G1 X35.87 Y33.383 E0.02971
G1 X36.561 Y32.999 E0.04458
G1 X37.286 Y32.687 E0.05943
G1 X38.039 Y32.45 E0.07428
G1 X38.813 Y32.291 E0.08914
G1 X39.598 Y32.21 E0.10398
G1 X40 Y32.2 E0.11155
G1 X60 Y32.2 E0.48776
G1 X60.789 Y32.24 E0.50262
G1 X61.569 Y32.359 E0.51746
G1 X62.334 Y32.557 E0.53233
G1 X63.074 Y32.831 E0.54717
G1 X63.783 Y33.179 E0.56203
G1 X64.454 Y33.597 E0.5769
G1 X65.078 Y34.08 E0.59174
G1 X65.651 Y34.623 E0.60659
G1 X66.166 Y35.222 E0.62145
G1 X66.617 Y35.87 E0.6363
G1 X67.001 Y36.561 E0.65117
G1 X67.313 Y37.286 E0.66602
G1 X67.55 Y38.039 E0.68087
G1 X67.709 Y38.813 E0.69573
G1 X67.79 Y39.598 E0.71058
G1 X67.8 Y40 E0.71814
G1 X67.8 Y60 E1.09435
G1 X67.76 Y60.789 E1.10921
G1 X67.641 Y61.569 E1.12405
G1 X67.443 Y62.334 E1.13892
G1 X67.169 Y63.074 E1.15376
G1 X66.821 Y63.783 E1.16862
G1 X66.403 Y64.454 E1.18349
G1 X65.92 Y65.078 E1.19833
G1 X65.377 Y65.651 E1.21318
G1 X64.778 Y66.166 E1.22804
G1 X64.13 Y66.617 E1.24289
G1 X63.439 Y67.001 E1.25776
G1 X62.714 Y67.313 E1.27261
G1 X61.961 Y67.55 E1.28746
G1 X61.187 Y67.709 E1.30232
G1 X60.402 Y67.79 E1.31717
G1 X60 Y67.8 E1.32473
G1 X40 Y67.8 E1.70094
G1 X39.211 Y67.76 E1.7158
G1 X38.431 Y67.641 E1.73064
G1 X37.666 Y67.443 E1.74551
G1 X36.926 Y67.169 E1.76035
G1 X36.217 Y66.821 E1.77521
G1 X35.546 Y66.403 E1.79008
G1 X34.922 Y65.92 E1.80492
G1 X34.349 Y65.377 E1.81977
G1 X33.834 Y64.778 E1.83463
G1 X33.383 Y64.13 E1.84948
G1 X32.999 Y63.439 E1.86435
G1 X32.687 Y62.714 E1.8792
G1 X32.45 Y61.961 E1.89405
G1 X32.291 Y61.187 E1.90891
G1 X32.21 Y60.402 E1.92376
G1 X32.2 Y60 E1.93132
G1 X32.2 Y40 E2.30753
G1 X32.24 Y39.211 E2.32239
G1 X32.359 Y38.431 E2.33723
G1 X32.557 Y37.666 E2.3521
G1 X32.831 Y36.926 E2.36694
G1 X33.179 Y36.217 E2.3818
G1 X33.597 Y35.546 E2.39667
G1 X34.08 Y34.922 E2.41151
G1 X34.623 Y34.349 E2.42636
G0 F3600 X35.016 Y34.53
G1 F1800 X35.611 Y34.042 E2.44084
G1 X36.253 Y33.619 E2.4553
G1 X36.936 Y33.264 E2.46978
G1 X37.651 Y32.983 E2.48423
G1 X38.393 Y32.777 E2.49871
G1 X39.151 Y32.649 E2.51317
G1 X40 Y32.6 E2.52917
G1 X60 Y32.6 E2.90538
G1 X60.768 Y32.64 E2.91985
G1 X61.528 Y32.759 E2.93432
G1 X62.271 Y32.957 E2.94878
G1 X62.99 Y33.231 E2.96326
G1 X63.676 Y33.578 E2.97772
G1 X64.323 Y33.994 E2.99219
G1 X64.923 Y34.475 E3.00665
G1 X65.47 Y35.016 E3.02112
G1 X65.958 Y35.611 E3.0356
G1 X66.381 Y36.253 E3.05006
G1 X66.736 Y36.936 E3.06454
G1 X67.017 Y37.651 E3.07899
G1 X67.223 Y38.393 E3.09348
G1 X67.351 Y39.151 E3.10794
G1 X67.4 Y40 E3.12393
G1 X67.4 Y60 E3.50014
G1 X67.36 Y60.768 E3.51461
G1 X67.241 Y61.528 E3.52908
G1 X67.043 Y62.271 E3.54354
G1 X66.769 Y62.99 E3.55802
G1 X66.422 Y63.676 E3.57248
G1 X66.006 Y64.323 E3.58695
G1 X65.525 Y64.923 E3.60141
G1 X64.984 Y65.47 E3.61589
G1 X64.389 Y65.958 E3.63036
G1 X63.747 Y66.381 E3.64482
G1 X63.064 Y66.736 E3.6593
G1 X62.349 Y67.017 E3.67375
G1 X61.607 Y67.223 E3.68824
G1 X60.849 Y67.351 E3.7027
G1 X60 Y67.4 E3.7187
G1 X40 Y67.4 E4.09491
G1 X39.232 Y67.36 E4.10937
G1 X38.472 Y67.241 E4.12384
G1 X37.729 Y67.043 E4.13831
G1 X37.01 Y66.769 E4.15278
G1 X36.324 Y66.422 E4.16724
G1 X35.677 Y66.006 E4.18171
G1 X35.077 Y65.525 E4.19618
G1 X34.53 Y64.984 E4.21065
G1 X34.042 Y64.389 E4.22512
G1 X33.619 Y63.747 E4.23958
G1 X33.264 Y63.064 E4.25406
G1 X32.983 Y62.349 E4.26852
G1 X32.777 Y61.607 E4.283
G1 X32.649 Y60.849 E4.29746
G1 X32.6 Y60 E4.31346
G1 X32.6 Y40 E4.68967
G1 X32.64 Y39.232 E4.70413
G1 X32.759 Y38.472 E4.7186
G1 X32.957 Y37.729 E4.73307
G1 X33.231 Y37.01 E4.74754
G1 X33.578 Y36.324 E4.762
G1 X33.994 Y35.677 E4.77647
G1 X34.475 Y35.077 E4.79094
G1 X35.016 Y34.53 E4.80541
G0 F3600 X35.408 Y34.716
G1 F1800 X35.998 Y34.257 E4.81947
G1 X36.634 Y33.862 E4.83355
G1 X37.308 Y33.538 E4.84762
G1 X38.013 Y33.288 E4.86169
G1 X38.741 Y33.114 E4.87577
G1 X39.483 Y33.019 E4.88984
G1 X40 Y33 E4.89957
G1 X60 Y33 E5.27579
G1 X60.747 Y33.04 E5.28986
G1 X61.485 Y33.159 E5.30392
G1 X62.207 Y33.357 E5.318
G1 X62.903 Y33.63 E5.33206
G1 X63.566 Y33.977 E5.34614
G1 X64.189 Y34.392 E5.36022
G1 X64.763 Y34.871 E5.37428
G1 X65.284 Y35.408 E5.38836
G1 X65.743 Y35.998 E5.40242
G1 X66.138 Y36.634 E5.4165
G1 X66.462 Y37.308 E5.43057
G1 X66.712 Y38.013 E5.44464
G1 X66.886 Y38.741 E5.45872
G1 X66.981 Y39.483 E5.47279
G1 X67 Y40 E5.48252
G1 X67 Y60 E5.85873
G1 X66.96 Y60.747 E5.87281
G1 X66.841 Y61.485 E5.88687
G1 X66.643 Y62.207 E5.90095
G1 X66.37 Y62.903 E5.91501
G1 X66.023 Y63.566 E5.92909
G1 X65.608 Y64.189 E5.94317
G1 X65.129 Y64.763 E5.95723
G1 X64.592 Y65.284 E5.97131
G1 X64.002 Y65.743 E5.98537
G1 X63.366 Y66.138 E5.99945
G1 X62.692 Y66.462 E6.01352
G1 X61.987 Y66.712 E6.02759
G1 X61.259 Y66.886 E6.04167
G1 X60.517 Y66.981 E6.05574
G1 X60 Y67 E6.06547
G1 X40 Y67 E6.44168
G1 X39.253 Y66.96 E6.45576
G1 X38.515 Y66.841 E6.46982
G1 X37.793 Y66.643 E6.4839
G1 X37.097 Y66.37 E6.49796
G1 X36.434 Y66.023 E6.51204
G1 X35.811 Y65.608 E6.52612
G1 X35.237 Y65.129 E6.54018
G1 X34.716 Y64.592 E6.55426
G1 X34.257 Y64.002 E6.56832
G1 X33.862 Y63.366 E6.5824
G1 X33.538 Y62.692 E6.59647
G1 X33.288 Y61.987 E6.61054
G1 X33.114 Y61.259 E6.62462
G1 X33.019 Y60.517 E6.63869
G1 X33 Y60 E6.64842
G1 X33 Y40 E7.02463
G1 X33.04 Y39.253 E7.0387
G1 X33.159 Y38.515 E7.05277
G1 X33.357 Y37.793 E7.06685
G1 X33.63 Y37.097 E7.08091
G1 X33.977 Y36.434 E7.09499
G1 X34.392 Y35.811 E7.10907
G1 X34.871 Y35.237 E7.12313
G1 X35.408 Y34.716 E7.13721
G0 F3600 X35.265 Y35.402
G1 F1800 X35.799 Y34.909 E7.15088
G1 X36.384 Y34.479 E7.16453
G1 X37.013 Y34.115 E7.1782
G1 X37.678 Y33.822 E7.19187
G1 X38.371 Y33.604 E7.20554
G1 X39.083 Y33.464 E7.21919
G1 X40 Y33.4 E7.23648
G1 X60 Y33.4 E7.61269
G1 X60.725 Y33.44 E7.62635
G1 X61.442 Y33.559 E7.64002
G1 X62.141 Y33.757 E7.65369
G1 X62.814 Y34.03 E7.66735
G1 X63.453 Y34.375 E7.68101
G1 X64.05 Y34.789 E7.69467
G1 X64.598 Y35.265 E7.70833
G1 X65.091 Y35.799 E7.722
G1 X65.521 Y36.384 E7.73566
G1 X65.885 Y37.013 E7.74933
G1 X66.178 Y37.678 E7.763
G1 X66.396 Y38.371 E7.77666
G1 X66.536 Y39.083 E7.79031
G1 X66.6 Y40 E7.8076
G1 X66.6 Y60 E8.18381
G1 X66.56 Y60.725 E8.19747
G1 X66.441 Y61.442 E8.21114
G1 X66.243 Y62.141 E8.22481
G1 X65.97 Y62.814 E8.23847
G1 X65.625 Y63.453 E8.25213
G1 X65.211 Y64.05 E8.2658
G1 X64.735 Y64.598 E8.27945
G1 X64.201 Y65.091 E8.29312
G1 X63.616 Y65.521 E8.30678
G1 X62.987 Y65.885 E8.32045
G1 X62.322 Y66.178 E8.33412
G1 X61.629 Y66.396 E8.34778
G1 X60.917 Y66.536 E8.36143
G1 X60 Y66.6 E8.37873
G1 X40 Y66.6 E8.75494
G1 X39.275 Y66.56 E8.76859
G1 X38.558 Y66.441 E8.78227
G1 X37.859 Y66.243 E8.79593
G1 X37.186 Y65.97 E8.80959
G1 X36.547 Y65.625 E8.82325
G1 X35.95 Y65.211 E8.83692
G1 X35.402 Y64.735 E8.85057
G1 X34.909 Y64.201 E8.86424
G1 X34.479 Y63.616 E8.8779
G1 X34.115 Y62.987 E8.89157
G1 X33.822 Y62.322 E8.90524
G1 X33.604 Y61.629 E8.91891
G1 X33.464 Y60.917 E8.93256
G1 X33.4 Y60 E8.94985
G1 X33.4 Y40 E9.32606
G1 X33.44 Y39.275 E9.33972
G1 X33.559 Y38.558 E9.35339
G1 X33.757 Y37.859 E9.36705
G1 X34.03 Y37.186 E9.38072
G1 X34.375 Y36.547 E9.39438
G1 X34.789 Y35.95 E9.40804
G1 X35.265 Y35.402 E9.4217
G0 F3600 X35.659 Y35.573
G1 F1800 X36.189 Y35.109 E9.43495
G1 X36.768 Y34.709 E9.44818
G1 X37.389 Y34.377 E9.46143
G1 X38.043 Y34.117 E9.47467
G1 X38.723 Y33.933 E9.48792
G1 X39.419 Y33.827 E9.50116
G1 X40 Y33.8 E9.5121
G1 X60 Y33.8 E9.88831
G1 X60.703 Y33.84 E9.90156
G1 X61.397 Y33.959 E9.9148
G1 X62.072 Y34.157 E9.92804
G1 X62.721 Y34.429 E9.94127
G1 X63.335 Y34.774 E9.95452
G1 X63.906 Y35.185 E9.96776
G1 X64.427 Y35.659 E9.98101
G1 X64.891 Y36.189 E9.99426
G1 X65.291 Y36.768 E10.00749
G1 X65.623 Y37.389 E10.02074
G1 X65.883 Y38.043 E10.03398
G1 X66.067 Y38.723 E10.04723
G1 X66.173 Y39.419 E10.06047
G1 X66.2 Y40 E10.07141
G1 X66.2 Y60 E10.44762
G1 X66.16 Y60.703 E10.46087
G1 X66.041 Y61.397 E10.47411
G1 X65.843 Y62.072 E10.48735
G1 X65.571 Y62.721 E10.50058
G1 X65.226 Y63.335 E10.51383
G1 X64.815 Y63.906 E10.52707
G1 X64.341 Y64.427 E10.54031
G1 X63.811 Y64.891 E10.55356
G1 X63.232 Y65.291 E10.5668
G1 X62.611 Y65.623 E10.58005
G1 X61.957 Y65.883 E10.59329
G1 X61.277 Y66.067 E10.60654
G1 X60.581 Y66.173 E10.61978
G1 X60 Y66.2 E10.63072
G1 X40 Y66.2 E11.00693
G1 X39.297 Y66.16 E11.02018
G1 X38.603 Y66.041 E11.03342
G1 X37.928 Y65.843 E11.04666
G1 X37.279 Y65.571 E11.05989
G1 X36.665 Y65.226 E11.07314
G1 X36.094 Y64.815 E11.08637
G1 X35.573 Y64.341 E11.09962
G1 X35.109 Y63.811 E11.11287
G1 X34.709 Y63.232 E11.12611
G1 X34.377 Y62.611 E11.13936
G1 X34.117 Y61.957 E11.1526
G1 X33.933 Y61.277 E11.16585
G1 X33.827 Y60.581 E11.17909
G1 X33.8 Y60 E11.19003
G1 X33.8 Y40 E11.56624
G1 X33.84 Y39.297 E11.57949
G1 X33.959 Y38.603 E11.59273
G1 X34.157 Y37.928 E11.60596
G1 X34.429 Y37.279 E11.6192
G1 X34.774 Y36.665 E11.63245
G1 X35.185 Y36.094 E11.64568
G1 X35.659 Y35.573 E11.65893
G0 F3600 X36.053 Y35.751
G1 F1800 X36.578 Y35.317 E11.67175
G1 X37.15 Y34.948 E11.68455
G1 X37.762 Y34.649 E11.69736
G1 X38.404 Y34.424 E11.71016
G1 X39.069 Y34.275 E11.72298
G1 X40 Y34.2 E11.74055
G1 X60 Y34.2 E12.11676
G1 X60.68 Y34.24 E12.12957
G1 X61.35 Y34.359 E12.14237
G1 X62.002 Y34.556 E12.15518
G1 X62.626 Y34.828 E12.16799
G1 X63.214 Y35.172 E12.1808
G1 X63.758 Y35.582 E12.19362
G1 X64.249 Y36.053 E12.20642
G1 X64.683 Y36.578 E12.21923
G1 X65.052 Y37.15 E12.23203
G1 X65.351 Y37.762 E12.24485
G1 X65.576 Y38.404 E12.25764
G1 X65.725 Y39.069 E12.27046
G1 X65.8 Y40 E12.28803
G1 X65.8 Y60 E12.66424
G1 X65.76 Y60.68 E12.67705
G1 X65.641 Y61.35 E12.68986
G1 X65.444 Y62.002 E12.70267
G1 X65.172 Y62.626 E12.71547
G1 X64.828 Y63.214 E12.72829
G1 X64.418 Y63.758 E12.7411
G1 X63.947 Y64.249 E12.7539
G1 X63.422 Y64.683 E12.76671
G1 X62.85 Y65.052 E12.77952
G1 X62.238 Y65.351 E12.79233
G1 X61.596 Y65.576 E12.80512
G1 X60.931 Y65.725 E12.81794
G1 X60 Y65.8 E12.83551
G1 X40 Y65.8 E13.21172
G1 X39.32 Y65.76 E13.22454
G1 X38.65 Y65.641 E13.23734
G1 X37.998 Y65.444 E13.25015
G1 X37.374 Y65.172 E13.26295
G1 X36.786 Y64.828 E13.27577
G1 X36.242 Y64.418 E13.28858
G1 X35.751 Y63.947 E13.30138
G1 X35.317 Y63.422 E13.31419
G1 X34.948 Y62.85 E13.327
G1 X34.649 Y62.238 E13.33981
G1 X34.424 Y61.596 E13.35261
G1 X34.275 Y60.931 E13.36543
G1 X34.2 Y60 E13.383
G1 X34.2 Y40 E13.75921
G1 X34.24 Y39.32 E13.77202
G1 X34.359 Y38.65 E13.78482
G1 X34.556 Y37.998 E13.79763
G1 X34.828 Y37.374 E13.81044
G1 X35.172 Y36.786 E13.82325
G1 X35.582 Y36.242 E13.83607
G1 X36.053 Y35.751 E13.84886
G0 F3600 X36.445 Y35.935
G1 F1800 X36.965 Y35.534 E13.86122
G1 X37.529 Y35.198 E13.87357
G1 X38.131 Y34.934 E13.88593
G1 X38.76 Y34.744 E13.89829
G1 X39.407 Y34.633 E13.91064
G1 X40 Y34.6 E13.92181
G1 X60 Y34.6 E14.29802
G1 X60.656 Y34.64 E14.31038
G1 X61.302 Y34.759 E14.32274
G1 X61.929 Y34.956 E14.3351
G1 X62.527 Y35.228 E14.34746
G1 X63.088 Y35.57 E14.35982
G1 X63.603 Y35.978 E14.37218
G1 X64.065 Y36.445 E14.38454
G1 X64.466 Y36.965 E14.39689
G1 X64.802 Y37.529 E14.40924
G1 X65.066 Y38.131 E14.4216
G1 X65.256 Y38.76 E14.43396
G1 X65.367 Y39.407 E14.44631
G1 X65.4 Y40 E14.45748
G1 X65.4 Y60 E14.83369
G1 X65.36 Y60.656 E14.84606
G1 X65.241 Y61.302 E14.85841
G1 X65.044 Y61.929 E14.87077
G1 X64.772 Y62.527 E14.88313
G1 X64.43 Y63.088 E14.89549
G1 X64.022 Y63.603 E14.90785
G1 X63.555 Y64.065 E14.92021
G1 X63.035 Y64.466 E14.93256
G1 X62.471 Y64.802 E14.94491
G1 X61.869 Y65.066 E14.95727
G1 X61.24 Y65.256 E14.96963
G1 X60.593 Y65.367 E14.98198
G1 X60 Y65.4 E14.99315
G1 X40 Y65.4 E15.36936
G1 X39.344 Y65.36 E15.38173
G1 X38.698 Y65.241 E15.39408
G1 X38.071 Y65.044 E15.40645
G1 X37.473 Y64.772 E15.4188
G1 X36.912 Y64.43 E15.43116
G1 X36.397 Y64.022 E15.44352
G1 X35.935 Y63.555 E15.45588
G1 X35.534 Y63.035 E15.46823
G1 X35.198 Y62.471 E15.48058
G1 X34.934 Y61.869 E15.49294
G1 X34.744 Y61.24 E15.5053
G1 X34.633 Y60.593 E15.51765
G1 X34.6 Y60 E15.52882
G1 X34.6 Y40 E15.90504
G1 X34.64 Y39.344 E15.9174
G1 X34.759 Y38.698 E15.92975
G1 X34.956 Y38.071 E15.94212
G1 X35.228 Y37.473 E15.95447
G1 X35.57 Y36.912 E15.96683
G1 X35.978 Y36.397 E15.97919
G1 X36.445 Y35.935 E15.99155
G0 F3600 X36.373 Y36.559
G1 F1800 X36.836 Y36.129 E16.00344
G1 X37.35 Y35.76 E16.01534
G1 X37.906 Y35.46 E16.02722
G1 X38.495 Y35.232 E16.0391
G1 X39.109 Y35.08 E16.051
G1 X40 Y35 E16.06783
G1 X60 Y35 E16.44404
G1 X60.631 Y35.04 E16.45593
G1 X61.252 Y35.159 E16.46783
G1 X61.852 Y35.356 E16.47971
G1 X62.424 Y35.627 E16.49161
G1 X62.956 Y35.967 E16.50349
G1 X63.441 Y36.373 E16.51539
G1 X63.871 Y36.836 E16.52727
G1 X64.24 Y37.35 E16.53917
G1 X64.54 Y37.906 E16.55106
G1 X64.768 Y38.495 E16.56294
G1 X64.92 Y39.109 E16.57484
G1 X65 Y40 E16.59166
G1 X65 Y60 E16.96788
G1 X64.96 Y60.631 E16.97977
G1 X64.841 Y61.252 E16.99166
G1 X64.644 Y61.852 E17.00354
G1 X64.373 Y62.424 E17.01545
G1 X64.033 Y62.956 E17.02732
G1 X63.627 Y63.441 E17.03922
G1 X63.164 Y63.871 E17.05111
G1 X62.65 Y64.24 E17.06301
G1 X62.094 Y64.54 E17.07489
G1 X61.505 Y64.768 E17.08677
G1 X60.891 Y64.92 E17.09867
G1 X60 Y65 E17.1155
G1 X40 Y65 E17.49171
G1 X39.369 Y64.96 E17.50361
G1 X38.748 Y64.841 E17.5155
G1 X38.148 Y64.644 E17.52738
G1 X37.576 Y64.373 E17.53928
G1 X37.044 Y64.033 E17.55116
G1 X36.559 Y63.627 E17.56306
G1 X36.129 Y63.164 E17.57494
G1 X35.76 Y62.65 E17.58685
G1 X35.46 Y62.094 E17.59873
G1 X35.232 Y61.505 E17.61061
G1 X35.08 Y60.891 E17.62251
G1 X35 Y60 E17.63934
G1 X35 Y40 E18.01555
G1 X35.04 Y39.369 E18.02744
G1 X35.159 Y38.748 E18.03934
G1 X35.356 Y38.148 E18.05121
G1 X35.627 Y37.576 E18.06312
G1 X35.967 Y37.044 E18.075
G1 X36.373 Y36.559 E18.08689
G0 F3600 X36.767 Y36.728
G1 F1800 X37.225 Y36.331 E18.0983
G1 X37.732 Y35.998 E18.10971
G1 X38.278 Y35.734 E18.12111
G1 X38.854 Y35.545 E18.13252
G1 X39.45 Y35.433 E18.14392
G1 X40 Y35.4 E18.15429
G1 X60 Y35.4 E18.5305
G1 X60.605 Y35.44 E18.54191
G1 X61.199 Y35.559 E18.5533
G1 X61.773 Y35.755 E18.56471
G1 X62.316 Y36.026 E18.57613
G1 X62.819 Y36.365 E18.58754
G1 X63.272 Y36.767 E18.59893
G1 X63.669 Y37.225 E18.61033
G1 X64.002 Y37.732 E18.62174
G1 X64.266 Y38.278 E18.63315
G1 X64.455 Y38.854 E18.64455
G1 X64.567 Y39.45 E18.65596
G1 X64.6 Y40 E18.66632
G1 X64.6 Y60 E19.04253
G1 X64.56 Y60.605 E19.05394
G1 X64.441 Y61.199 E19.06533
G1 X64.245 Y61.773 E19.07674
G1 X63.974 Y62.316 E19.08816
G1 X63.635 Y62.819 E19.09957
G1 X63.233 Y63.272 E19.11096
G1 X62.775 Y63.669 E19.12236
G1 X62.268 Y64.002 E19.13377
G1 X61.722 Y64.266 E19.14518
G1 X61.146 Y64.455 E19.15659
G1 X60.55 Y64.567 E19.16799
G1 X60 Y64.6 E19.17836
G1 X40 Y64.6 E19.55457
G1 X39.395 Y64.56 E19.56597
G1 X38.801 Y64.441 E19.57737
G1 X38.227 Y64.245 E19.58878
G1 X37.684 Y63.974 E19.60019
G1 X37.181 Y63.635 E19.6116
G1 X36.728 Y63.233 E19.623
G1 X36.331 Y62.775 E19.6344
G1 X35.998 Y62.268 E19.64581
G1 X35.734 Y61.722 E19.65722
G1 X35.545 Y61.146 E19.66862
G1 X35.433 Y60.55 E19.68003
G1 X35.4 Y60 E19.69039
G1 X35.4 Y40 E20.0666
G1 X35.44 Y39.395 E20.07801
G1 X35.559 Y38.801 E20.0894
G1 X35.755 Y38.227 E20.10081
G1 X36.026 Y37.684 E20.11223
G1 X36.365 Y37.181 E20.12364
G1 X36.767 Y36.728 E20.13503
G0 F3600 X37.16 Y36.906
G1 F1800 X37.613 Y36.544 E20.14594
G1 X38.111 Y36.249 E20.15683
G1 X38.645 Y36.024 E20.16773
G1 X39.205 Y35.876 E20.17862
G1 X40 Y35.8 E20.19364
G1 X60 Y35.8 E20.56986
G1 X60.578 Y35.84 E20.58075
G1 X61.145 Y35.959 E20.59165
G1 X61.69 Y36.155 E20.60255
G1 X62.203 Y36.424 E20.61344
G1 X62.674 Y36.761 E20.62434
G1 X63.094 Y37.16 E20.63523
G1 X63.456 Y37.613 E20.64614
G1 X63.751 Y38.111 E20.65703
G1 X63.976 Y38.645 E20.66793
G1 X64.124 Y39.205 E20.67882
G1 X64.2 Y40 E20.69385
G1 X64.2 Y60 E21.07006
G1 X64.16 Y60.578 E21.08096
G1 X64.041 Y61.145 E21.09185
G1 X63.845 Y61.69 E21.10275
G1 X63.576 Y62.203 E21.11365
G1 X63.239 Y62.674 E21.12454
G1 X62.84 Y63.094 E21.13544
G1 X62.387 Y63.456 E21.14634
G1 X61.889 Y63.751 E21.15723
G1 X61.355 Y63.976 E21.16813
G1 X60.795 Y64.124 E21.17903
G1 X60 Y64.2 E21.19405
G1 X40 Y64.2 E21.57026
